static/TitleLUT.CUBE
#Created by: Adobe Photoshop Export Color Lookup Plugin
TITLE "TitleLUT"
#LUT size
LUT_3D_SIZE 8
#data domain
#LUT data points
DOMAIN_MIN 0.000000 0.000000 0.000000
DOMAIN_MAX 0.903226 0.903226 0.903226
0.000000 0.000000 0.000000
0.000000 0.000000 0.000000
0.000000 0.000000 0.000000
0.030273 0.000000 0.000000
0.106628 0.000000 0.000000
0.325989 0.000000 0.000000
0.688049 0.000000 0.000000
0.901215 0.000000 0.000000
0.000000 0.000000 0.000000
0.000000 0.000000 0.000000
0.000000 0.000000 0.000000
0.030273 0.000000 0.000000
0.106628 0.000000 0.000000
0.325989 0.000000 0.000000
0.688049 0.000000 0.000000
0.901215 0.000000 0.000000
0.000000 0.000000 0.000000
0.000000 0.000000 0.000000
0.000000 0.000000 0.000000
0.030273 0.000000 0.000000
0.106628 0.000000 0.000000
0.325989 0.000000 0.000000
0.688049 0.000000 0.000000
0.901215 0.000000 0.000000
0.000000 0.030273 0.000000
0.000000 0.030273 0.000000
0.000000 0.030273 0.000000
0.030273 0.030273 0.000000
0.106628 0.030273 0.000000
0.325989 0.030273 0.000000
0.688049 0.030273 0.000000
0.901215 0.030273 0.000000
0.000000 0.106628 0.000000
0.000000 0.106628 0.000000
0.000000 0.106628 0.000000
0.030273 0.106628 0.000000
0.106628 0.106628 0.000000
0.325989 0.106628 0.000000
0.688049 0.106628 0.000000
0.901215 0.106628 0.000000
0.000000 0.325989 0.000000
0.000000 0.325989 0.000000
0.000000 0.325989 0.000000
0.030273 0.325989 0.000000
0.106628 0.325989 0.000000
0.325989 0.325989 0.000000
0.688049 0.325989 0.000000
0.901215 0.325989 0.000000
0.000000 0.688049 0.000000
0.000000 0.688049 0.000000
0.000000 0.688049 0.000000
0.030273 0.688049 0.000000
0.106628 0.688049 0.000000
0.325989 0.688049 0.000000
0.688049 0.688049 0.000000
0.901215 0.688049 0.000000
0.000000 0.901215 0.000000
0.000000 0.901215 0.000000
0.000000 0.901215 0.000000
0.030273 0.901215 0.000000
0.106628 0.901215 0.000000
0.325989 0.901215 0.000000
0.688049 0.901215 0.000000
0.901215 0.901215 0.000000
0.000000 0.000000 0.000000
0.000000 0.000000 0.000000
0.000000 0.000000 0.000000
0.030273 0.000000 0.000000
0.106628 0.000000 0.000000
0.325989 0.000000 0.000000
0.688049 0.000000 0.000000
0.901215 0.000000 0.000000
0.000000 0.000000 0.000000
0.000000 0.000000 0.000000
0.000000 0.000000 0.000000
0.030273 0.000000 0.000000
0.106628 0.000000 0.000000
0.325989 0.000000 0.000000
0.688049 0.000000 0.000000
0.901215 0.000000 0.000000
0.000000 0.000000 0.000000
0.000000 0.000000 0.000000
0.000000 0.000000 0.000000
0.030273 0.000000 0.000000
0.106628 0.000000 0.000000
0.325989 0.000000 0.000000
0.688049 0.000000 0.000000
0.901215 0.000000 0.000000
0.000000 0.030273 0.000000
0.000000 0.030273 0.000000
0.000000 0.030273 0.000000
0.030273 0.030273 0.000000
0.106628 0.030273 0.000000
0.325989 0.030273 0.000000
0.688049 0.030273 0.000000
0.901215 0.030273 0.000000
0.000000 0.106628 0.000000
0.000000 0.106628 0.000000
0.000000 0.106628 0.000000
0.030273 0.106628 0.000000
0.106628 0.106628 0.000000
0.325989 0.106628 0.000000
0.688049 0.106628 0.000000
0.901215 0.106628 0.000000
0.000000 0.325989 0.000000
0.000000 0.325989 0.000000
0.000000 0.325989 0.000000
0.030273 0.325989 0.000000
0.106628 0.325989 0.000000
0.325989 0.325989 0.000000
0.688049 0.325989 0.000000
0.901215 0.325989 0.000000
0.000000 0.688049 0.000000
0.000000 0.688049 0.000000
0.000000 0.688049 0.000000
0.030273 0.688049 0.000000
0.106628 0.688049 0.000000
0.325989 0.688049 0.000000
0.688049 0.688049 0.000000
0.901215 0.688049 0.000000
0.000000 0.901215 0.000000
0.000000 0.901215 0.000000
0.000000 0.901215 0.000000
0.030273 0.901215 0.000000
0.106628 0.901215 0.000000
0.325989 0.901215 0.000000
0.688049 0.901215 0.000000
0.901215 0.901215 0.000000
0.000000 0.000000 0.000000
0.000000 0.000000 0.000000
0.000000 0.000000 0.000000
0.030273 0.000000 0.000000
0.106628 0.000000 0.000000
0.325989 0.000000 0.000000
0.688049 0.000000 0.000000
0.901215 0.000000 0.000000
0.000000 0.000000 0.000000
0.000000 0.000000 0.000000
0.000000 0.000000 0.000000
0.030273 0.000000 0.000000
0.106628 0.000000 0.000000
0.325989 0.000000 0.000000
0.688049 0.000000 0.000000
0.901215 0.000000 0.000000
0.000000 0.000000 0.000000
0.000000 0.000000 0.000000
0.000000 0.000000 0.000000
0.030273 0.000000 0.000000
0.106628 0.000000 0.000000
0.325989 0.000000 0.000000
0.688049 0.000000 0.000000
0.901215 0.000000 0.000000
0.000000 0.030273 0.000000
0.000000 0.030273 0.000000
0.000000 0.030273 0.000000
0.030273 0.030273 0.000000
0.106628 0.030273 0.000000
0.325989 0.030273 0.000000
0.688049 0.030273 0.000000
0.901215 0.030273 0.000000
0.000000 0.106628 0.000000
0.000000 0.106628 0.000000
0.000000 0.106628 0.000000
0.030273 0.106628 0.000000
0.106628 0.106628 0.000000
0.325989 0.106628 0.000000
0.688049 0.106628 0.000000
0.901215 0.106628 0.000000
0.000000 0.325989 0.000000
0.000000 0.325989 0.000000
0.000000 0.325989 0.000000
0.030273 0.325989 0.000000
0.106628 0.325989 0.000000
0.325989 0.325989 0.000000
0.688049 0.325989 0.000000
0.901215 0.325989 0.000000
0.000000 0.688049 0.000000
0.000000 0.688049 0.000000
0.000000 0.688049 0.000000
0.030273 0.688049 0.000000
0.106628 0.688049 0.000000
0.325989 0.688049 0.000000
0.688049 0.688049 0.000000
0.901215 0.688049 0.000000
0.000000 0.901215 0.000000
0.000000 0.901215 0.000000
0.000000 0.901215 0.000000
0.030273 0.901215 0.000000
0.106628 0.901215 0.000000
0.325989 0.901215 0.000000
0.688049 0.901215 0.000000
0.901215 0.901215 0.000000
0.000000 0.000000 0.030273
0.000000 0.000000 0.030273
0.000000 0.000000 0.030273
0.030273 0.000000 0.030273
0.106628 0.000000 0.030273
0.325989 0.000000 0.030273
0.688049 0.000000 0.030273
0.901215 0.000000 0.030273
0.000000 0.000000 0.030273
0.000000 0.000000 0.030273
0.000000 0.000000 0.030273
0.030273 0.000000 0.030273
0.106628 0.000000 0.030273
0.325989 0.000000 0.030273
0.688049 0.000000 0.030273
0.901215 0.000000 0.030273
0.000000 0.000000 0.030273
0.000000 0.000000 0.030273
0.000000 0.000000 0.030273
0.030273 0.000000 0.030273
0.106628 0.000000 0.030273
0.325989 0.000000 0.030273
0.688049 0.000000 0.030273
0.901215 0.000000 0.030273
0.000000 0.030273 0.030273
0.000000 0.030273 0.030273
0.000000 0.030273 0.030273
0.030273 0.030273 0.030273
0.106628 0.030273 0.030273
0.325989 0.030273 0.030273
0.688049 0.030273 0.030273
0.901215 0.030273 0.030273
0.000000 0.106628 0.030273
0.000000 0.106628 0.030273
0.000000 0.106628 0.030273
0.030273 0.106628 0.030273
0.106628 0.106628 0.030273
0.325989 0.106628 0.030273
0.688049 0.106628 0.030273
0.901215 0.106628 0.030273
0.000000 0.325989 0.030273
0.000000 0.325989 0.030273
0.000000 0.325989 0.030273
0.030273 0.325989 0.030273
0.106628 0.325989 0.030273
0.325989 0.325989 0.030273
0.688049 0.325989 0.030273
0.901215 0.325989 0.030273
0.000000 0.688049 0.030273
0.000000 0.688049 0.030273
0.000000 0.688049 0.030273
0.030273 0.688049 0.030273
0.106628 0.688049 0.030273
0.325989 0.688049 0.030273
0.688049 0.688049 0.030273
0.901215 0.688049 0.030273
0.000000 0.901215 0.030273
0.000000 0.901215 0.030273
0.000000 0.901215 0.030273
0.030273 0.901215 0.030273
0.106628 0.901215 0.030273
0.325989 0.901215 0.030273
0.688049 0.901215 0.030273
0.901215 0.901215 0.030273
0.000000 0.000000 0.106628
0.000000 0.000000 0.106628
0.000000 0.000000 0.106628
0.030273 0.000000 0.106628
0.106628 0.000000 0.106628
0.325989 0.000000 0.106628
0.688049 0.000000 0.106628
0.901215 0.000000 0.106628
0.000000 0.000000 0.106628
0.000000 0.000000 0.106628
0.000000 0.000000 0.106628
0.030273 0.000000 0.106628
0.106628 0.000000 0.106628
0.325989 0.000000 0.106628
0.688049 0.000000 0.106628
0.901215 0.000000 0.106628
0.000000 0.000000 0.106628
0.000000 0.000000 0.106628
0.000000 0.000000 0.106628
0.030273 0.000000 0.106628
0.106628 0.000000 0.106628
0.325989 0.000000 0.106628
0.688049 0.000000 0.106628
0.901215 0.000000 0.106628
0.000000 0.030273 0.106628
0.000000 0.030273 0.106628
0.000000 0.030273 0.106628
0.030273 0.030273 0.106628
0.106628 0.030273 0.106628
0.325989 0.030273 0.106628
0.688049 0.030273 0.106628
0.901215 0.030273 0.106628
0.000000 0.106628 0.106628
0.000000 0.106628 0.106628
0.000000 0.106628 0.106628
0.030273 0.106628 0.106628
0.106628 0.106628 0.106628
0.325989 0.106628 0.106628
0.688049 0.106628 0.106628
0.901215 0.106628 0.106628
0.000000 0.325989 0.106628
0.000000 0.325989 0.106628
0.000000 0.325989 0.106628
0.030273 0.325989 0.106628
0.106628 0.325989 0.106628
0.325989 0.325989 0.106628
0.688049 0.325989 0.106628
0.901215 0.325989 0.106628
0.000000 0.688049 0.106628
0.000000 0.688049 0.106628
0.000000 0.688049 0.106628
0.030273 0.688049 0.106628
0.106628 0.688049 0.106628
0.325989 0.688049 0.106628
0.688049 0.688049 0.106628
0.901215 0.688049 0.106628
0.000000 0.901215 0.106628
0.000000 0.901215 0.106628
0.000000 0.901215 0.106628
0.030273 0.901215 0.106628
0.106628 0.901215 0.106628
0.325989 0.901215 0.106628
0.688049 0.901215 0.106628
0.901215 0.901215 0.106628
0.000000 0.000000 0.325989
0.000000 0.000000 0.325989
0.000000 0.000000 0.325989
0.030273 0.000000 0.325989
0.106628 0.000000 0.325989
0.325989 0.000000 0.325989
0.688049 0.000000 0.325989
0.901215 0.000000 0.325989
0.000000 0.000000 0.325989
0.000000 0.000000 0.325989
0.000000 0.000000 0.325989
0.030273 0.000000 0.325989
0.106628 0.000000 0.325989
0.325989 0.000000 0.325989
0.688049 0.000000 0.325989
0.901215 0.000000 0.325989
0.000000 0.000000 0.325989
0.000000 0.000000 0.325989
0.000000 0.000000 0.325989
0.030273 0.000000 0.325989
0.106628 0.000000 0.325989
0.325989 0.000000 0.325989
0.688049 0.000000 0.325989
0.901215 0.000000 0.325989
0.000000 0.030273 0.325989
0.000000 0.030273 0.325989
0.000000 0.030273 0.325989
0.030273 0.030273 0.325989
0.106628 0.030273 0.325989
0.325989 0.030273 0.325989
0.688049 0.030273 0.325989
0.901215 0.030273 0.325989
0.000000 0.106628 0.325989
0.000000 0.106628 0.325989
0.000000 0.106628 0.325989
0.030273 0.106628 0.325989
0.106628 0.106628 0.325989
0.325989 0.106628 0.325989
0.688049 0.106628 0.325989
0.901215 0.106628 0.325989
0.000000 0.325989 0.325989
0.000000 0.325989 0.325989
0.000000 0.325989 0.325989
0.030273 0.325989 0.325989
0.106628 0.325989 0.325989
0.325989 0.325989 0.325989
0.688049 0.325989 0.325989
0.901215 0.325989 0.325989
0.000000 0.688049 0.325989
0.000000 0.688049 0.325989
0.000000 0.688049 0.325989
0.030273 0.688049 0.325989
0.106628 0.688049 0.325989
0.325989 0.688049 0.325989
0.688049 0.688049 0.325989
0.901215 0.688049 0.325989
0.000000 0.901215 0.325989
0.000000 0.901215 0.325989
0.000000 0.901215 0.325989
0.030273 0.901215 0.325989
0.106628 0.901215 0.325989
0.325989 0.901215 0.325989
0.688049 0.901215 0.325989
0.901215 0.901215 0.325989
0.000000 0.000000 0.688049
0.000000 0.000000 0.688049
0.000000 0.000000 0.688049
0.030273 0.000000 0.688049
0.106628 0.000000 0.688049
0.325989 0.000000 0.688049
0.688049 0.000000 0.688049
0.901215 0.000000 0.688049
0.000000 0.000000 0.688049
0.000000 0.000000 0.688049
0.000000 0.000000 0.688049
0.030273 0.000000 0.688049
0.106628 0.000000 0.688049
0.325989 0.000000 0.688049
0.688049 0.000000 0.688049
0.901215 0.000000 0.688049
0.000000 0.000000 0.688049
0.000000 0.000000 0.688049
0.000000 0.000000 0.688049
0.030273 0.000000 0.688049
0.106628 0.000000 0.688049
0.325989 0.000000 0.688049
0.688049 0.000000 0.688049
0.901215 0.000000 0.688049
0.000000 0.030273 0.688049
0.000000 0.030273 0.688049
0.000000 0.030273 0.688049
0.030273 0.030273 0.688049
0.106628 0.030273 0.688049
0.325989 0.030273 0.688049
0.688049 0.030273 0.688049
0.901215 0.030273 0.688049
0.000000 0.106628 0.688049
0.000000 0.106628 0.688049
0.000000 0.106628 0.688049
0.030273 0.106628 0.688049
0.106628 0.106628 0.688049
0.325989 0.106628 0.688049
0.688049 0.106628 0.688049
0.901215 0.106628 0.688049
0.000000 0.325989 0.688049
0.000000 0.325989 0.688049
0.000000 0.325989 0.688049
0.030273 0.325989 0.688049
0.106628 0.325989 0.688049
0.325989 0.325989 0.688049
0.688049 0.325989 0.688049
0.901215 0.325989 0.688049
0.000000 0.688049 0.688049
0.000000 0.688049 0.688049
0.000000 0.688049 0.688049
0.030273 0.688049 0.688049
0.106628 0.688049 0.688049
0.325989 0.688049 0.688049
0.688049 0.688049 0.688049
0.901215 0.688049 0.688049
0.000000 0.901215 0.688049
0.000000 0.901215 0.688049
0.000000 0.901215 0.688049
0.030273 0.901215 0.688049
0.106628 0.901215 0.688049
0.325989 0.901215 0.688049
0.688049 0.901215 0.688049
0.901215 0.901215 0.688049
0.000000 0.000000 0.901215
0.000000 0.000000 0.901215
0.000000 0.000000 0.901215
0.030273 0.000000 0.901215
0.106628 0.000000 0.901215
0.325989 0.000000 0.901215
0.688049 0.000000 0.901215
0.901215 0.000000 0.901215
0.000000 0.000000 0.901215
0.000000 0.000000 0.901215
0.000000 0.000000 0.901215
0.030273 0.000000 0.901215
0.106628 0.000000 0.901215
0.325989 0.000000 0.901215
0.688049 0.000000 0.901215
0.901215 0.000000 0.901215
0.000000 0.000000 0.901215
0.000000 0.000000 0.901215
0.000000 0.000000 0.901215
0.030273 0.000000 0.901215
0.106628 0.000000 0.901215
0.325989 0.000000 0.901215
0.688049 0.000000 0.901215
0.901215 0.000000 0.901215
0.000000 0.030273 0.901215
0.000000 0.030273 0.901215
0.000000 0.030273 0.901215
0.030273 0.030273 0.901215
0.106628 0.030273 0.901215
0.325989 0.030273 0.901215
0.688049 0.030273 0.901215
0.901215 0.030273 0.901215
0.000000 0.106628 0.901215
0.000000 0.106628 0.901215
0.000000 0.106628 0.901215
0.030273 0.106628 0.901215
0.106628 0.106628 0.901215
0.325989 0.106628 0.901215
0.688049 0.106628 0.901215
0.901215 0.106628 0.901215
0.000000 0.325989 0.901215
0.000000 0.325989 0.901215
0.000000 0.325989 0.901215
0.030273 0.325989 0.901215
0.106628 0.325989 0.901215
0.325989 0.325989 0.901215
0.688049 0.325989 0.901215
0.901215 0.325989 0.901215
0.000000 0.688049 0.901215
0.000000 0.688049 0.901215
0.000000 0.688049 0.901215
0.030273 0.688049 0.901215
0.106628 0.688049 0.901215
0.325989 0.688049 0.901215
0.688049 0.688049 0.901215
0.901215 0.688049 0.901215
0.000000 0.901215 0.901215
0.000000 0.901215 0.901215
0.000000 0.901215 0.901215
0.030273 0.901215 0.901215
0.106628 0.901215 0.901215
0.325989 0.901215 0.901215
0.688049 0.901215 0.901215
0.901215 0.901215 0.901215
