static/TitleLUT.CUBE
#Created by: Adobe Photoshop Export Color Lookup Plugin
TITLE "TitleLUT"
#LUT size
LUT_3D_SIZE 32
#data domain
DOMAIN_MIN 0.0 0.0 0.0
DOMAIN_MAX 1.0 1.0 1.0
#LUT data points
0.000000 0.000000 0.000000
0.000000 0.000000 0.000000
0.000000 0.000000 0.000000
0.000000 0.000000 0.000000
0.000000 0.000000 0.000000
0.000000 0.000000 0.000000
0.000000 0.000000 0.000000
0.000000 0.000000 0.000000
0.000000 0.000000 0.000000
0.002716 0.000000 0.000000
0.009735 0.000000 0.000000
0.018829 0.000000 0.000000
0.030273 0.000000 0.000000
0.044220 0.000000 0.000000
0.060913 0.000000 0.000000
0.080902 0.000000 0.000000
0.106628 0.000000 0.000000
0.140991 0.000000 0.000000
0.187012 0.000000 0.000000
0.247772 0.000000 0.000000
0.325989 0.000000 0.000000
0.418823 0.000000 0.000000
0.516418 0.000000 0.000000
0.608612 0.000000 0.000000
0.688049 0.000000 0.000000
0.755310 0.000000 0.000000
0.812103 0.000000 0.000000
0.860168 0.000000 0.000000
0.901215 0.000000 0.000000
0.937042 0.000000 0.000000
0.969391 0.000000 0.000000
1.000000 0.000000 0.000000
0.000000 0.000000 0.000000
0.000000 0.000000 0.000000
0.000000 0.000000 0.000000
0.000000 0.000000 0.000000
0.000000 0.000000 0.000000
0.000000 0.000000 0.000000
0.000000 0.000000 0.000000
0.000000 0.000000 0.000000
0.000000 0.000000 0.000000
0.002716 0.000000 0.000000
0.009735 0.000000 0.000000
0.018829 0.000000 0.000000
0.030273 0.000000 0.000000
0.044220 0.000000 0.000000
0.060913 0.000000 0.000000
0.080902 0.000000 0.000000
0.106628 0.000000 0.000000
0.140991 0.000000 0.000000
0.187012 0.000000 0.000000
0.247772 0.000000 0.000000
0.325989 0.000000 0.000000
0.418823 0.000000 0.000000
0.516418 0.000000 0.000000
0.608612 0.000000 0.000000
0.688049 0.000000 0.000000
0.755310 0.000000 0.000000
0.812103 0.000000 0.000000
0.860168 0.000000 0.000000
0.901215 0.000000 0.000000
0.937042 0.000000 0.000000
0.969391 0.000000 0.000000
1.000000 0.000000 0.000000
0.000000 0.000000 0.000000
0.000000 0.000000 0.000000
0.000000 0.000000 0.000000
0.000000 0.000000 0.000000
0.000000 0.000000 0.000000
0.000000 0.000000 0.000000
0.000000 0.000000 0.000000
0.000000 0.000000 0.000000
0.000000 0.000000 0.000000
0.002716 0.000000 0.000000
0.009735 0.000000 0.000000
0.018829 0.000000 0.000000
0.030273 0.000000 0.000000
0.044220 0.000000 0.000000
0.060913 0.000000 0.000000
0.080902 0.000000 0.000000
0.106628 0.000000 0.000000
0.140991 0.000000 0.000000
0.187012 0.000000 0.000000
0.247772 0.000000 0.000000
0.325989 0.000000 0.000000
0.418823 0.000000 0.000000
0.516418 0.000000 0.000000
0.608612 0.000000 0.000000
0.688049 0.000000 0.000000
0.755310 0.000000 0.000000
0.812103 0.000000 0.000000
0.860168 0.000000 0.000000
0.901215 0.000000 0.000000
0.937042 0.000000 0.000000
0.969391 0.000000 0.000000
1.000000 0.000000 0.000000
0.000000 0.000000 0.000000
0.000000 0.000000 0.000000
0.000000 0.000000 0.000000
0.000000 0.000000 0.000000
0.000000 0.000000 0.000000
0.000000 0.000000 0.000000
0.000000 0.000000 0.000000
0.000000 0.000000 0.000000
0.000000 0.000000 0.000000
0.002716 0.000000 0.000000
0.009735 0.000000 0.000000
0.018829 0.000000 0.000000
0.030273 0.000000 0.000000
0.044220 0.000000 0.000000
0.060913 0.000000 0.000000
0.080902 0.000000 0.000000
0.106628 0.000000 0.000000
0.140991 0.000000 0.000000
0.187012 0.000000 0.000000
0.247772 0.000000 0.000000
0.325989 0.000000 0.000000
0.418823 0.000000 0.000000
0.516418 0.000000 0.000000
0.608612 0.000000 0.000000
0.688049 0.000000 0.000000
0.755310 0.000000 0.000000
0.812103 0.000000 0.000000
0.860168 0.000000 0.000000
0.901215 0.000000 0.000000
0.937042 0.000000 0.000000
0.969391 0.000000 0.000000
1.000000 0.000000 0.000000
0.000000 0.000000 0.000000
0.000000 0.000000 0.000000
0.000000 0.000000 0.000000
0.000000 0.000000 0.000000
0.000000 0.000000 0.000000
0.000000 0.000000 0.000000
0.000000 0.000000 0.000000
0.000000 0.000000 0.000000
0.000000 0.000000 0.000000
0.002716 0.000000 0.000000
0.009735 0.000000 0.000000
0.018829 0.000000 0.000000
0.030273 0.000000 0.000000
0.044220 0.000000 0.000000
0.060913 0.000000 0.000000
0.080902 0.000000 0.000000
0.106628 0.000000 0.000000
0.140991 0.000000 0.000000
0.187012 0.000000 0.000000
0.247772 0.000000 0.000000
0.325989 0.000000 0.000000
0.418823 0.000000 0.000000
0.516418 0.000000 0.000000
0.608612 0.000000 0.000000
0.688049 0.000000 0.000000
0.755310 0.000000 0.000000
0.812103 0.000000 0.000000
0.860168 0.000000 0.000000
0.901215 0.000000 0.000000
0.937042 0.000000 0.000000
0.969391 0.000000 0.000000
1.000000 0.000000 0.000000
0.000000 0.000000 0.000000
0.000000 0.000000 0.000000
0.000000 0.000000 0.000000
0.000000 0.000000 0.000000
0.000000 0.000000 0.000000
0.000000 0.000000 0.000000
0.000000 0.000000 0.000000
0.000000 0.000000 0.000000
0.000000 0.000000 0.000000
0.002716 0.000000 0.000000
0.009735 0.000000 0.000000
0.018829 0.000000 0.000000
0.030273 0.000000 0.000000
0.044220 0.000000 0.000000
0.060913 0.000000 0.000000
0.080902 0.000000 0.000000
0.106628 0.000000 0.000000
0.140991 0.000000 0.000000
0.187012 0.000000 0.000000
0.247772 0.000000 0.000000
0.325989 0.000000 0.000000
0.418823 0.000000 0.000000
0.516418 0.000000 0.000000
0.608612 0.000000 0.000000
0.688049 0.000000 0.000000
0.755310 0.000000 0.000000
0.812103 0.000000 0.000000
0.860168 0.000000 0.000000
0.901215 0.000000 0.000000
0.937042 0.000000 0.000000
0.969391 0.000000 0.000000
1.000000 0.000000 0.000000
0.000000 0.000000 0.000000
0.000000 0.000000 0.000000
0.000000 0.000000 0.000000
0.000000 0.000000 0.000000
0.000000 0.000000 0.000000
0.000000 0.000000 0.000000
0.000000 0.000000 0.000000
0.000000 0.000000 0.000000
0.000000 0.000000 0.000000
0.002716 0.000000 0.000000
0.009735 0.000000 0.000000
0.018829 0.000000 0.000000
0.030273 0.000000 0.000000
0.044220 0.000000 0.000000
0.060913 0.000000 0.000000
0.080902 0.000000 0.000000
0.106628 0.000000 0.000000
0.140991 0.000000 0.000000
0.187012 0.000000 0.000000
0.247772 0.000000 0.000000
0.325989 0.000000 0.000000
0.418823 0.000000 0.000000
0.516418 0.000000 0.000000
0.608612 0.000000 0.000000
0.688049 0.000000 0.000000
0.755310 0.000000 0.000000
0.812103 0.000000 0.000000
0.860168 0.000000 0.000000
0.901215 0.000000 0.000000
0.937042 0.000000 0.000000
0.969391 0.000000 0.000000
1.000000 0.000000 0.000000
0.000000 0.000000 0.000000
0.000000 0.000000 0.000000
0.000000 0.000000 0.000000
0.000000 0.000000 0.000000
0.000000 0.000000 0.000000
0.000000 0.000000 0.000000
0.000000 0.000000 0.000000
0.000000 0.000000 0.000000
0.000000 0.000000 0.000000
0.002716 0.000000 0.000000
0.009735 0.000000 0.000000
0.018829 0.000000 0.000000
0.030273 0.000000 0.000000
0.044220 0.000000 0.000000
0.060913 0.000000 0.000000
0.080902 0.000000 0.000000
0.106628 0.000000 0.000000
0.140991 0.000000 0.000000
0.187012 0.000000 0.000000
0.247772 0.000000 0.000000
0.325989 0.000000 0.000000
0.418823 0.000000 0.000000
0.516418 0.000000 0.000000
0.608612 0.000000 0.000000
0.688049 0.000000 0.000000
0.755310 0.000000 0.000000
0.812103 0.000000 0.000000
0.860168 0.000000 0.000000
0.901215 0.000000 0.000000
0.937042 0.000000 0.000000
0.969391 0.000000 0.000000
1.000000 0.000000 0.000000
0.000000 0.000000 0.000000
0.000000 0.000000 0.000000
0.000000 0.000000 0.000000
0.000000 0.000000 0.000000
0.000000 0.000000 0.000000
0.000000 0.000000 0.000000
0.000000 0.000000 0.000000
0.000000 0.000000 0.000000
0.000000 0.000000 0.000000
0.002716 0.000000 0.000000
0.009735 0.000000 0.000000
0.018829 0.000000 0.000000
0.030273 0.000000 0.000000
0.044220 0.000000 0.000000
0.060913 0.000000 0.000000
0.080902 0.000000 0.000000
0.106628 0.000000 0.000000
0.140991 0.000000 0.000000
0.187012 0.000000 0.000000
0.247772 0.000000 0.000000
0.325989 0.000000 0.000000
0.418823 0.000000 0.000000
0.516418 0.000000 0.000000
0.608612 0.000000 0.000000
0.688049 0.000000 0.000000
0.755310 0.000000 0.000000
0.812103 0.000000 0.000000
0.860168 0.000000 0.000000
0.901215 0.000000 0.000000
0.937042 0.000000 0.000000
0.969391 0.000000 0.000000
1.000000 0.000000 0.000000
0.000000 0.002716 0.000000
0.000000 0.002716 0.000000
0.000000 0.002716 0.000000
0.000000 0.002716 0.000000
0.000000 0.002716 0.000000
0.000000 0.002716 0.000000
0.000000 0.002716 0.000000
0.000000 0.002716 0.000000
0.000000 0.002716 0.000000
0.002716 0.002716 0.000000
0.009735 0.002716 0.000000
0.018829 0.002716 0.000000
0.030273 0.002716 0.000000
0.044220 0.002716 0.000000
0.060913 0.002716 0.000000
0.080902 0.002716 0.000000
0.106628 0.002716 0.000000
0.140991 0.002716 0.000000
0.187012 0.002716 0.000000
0.247772 0.002716 0.000000
0.325989 0.002716 0.000000
0.418823 0.002716 0.000000
0.516418 0.002716 0.000000
0.608612 0.002716 0.000000
0.688049 0.002716 0.000000
0.755310 0.002716 0.000000
0.812103 0.002716 0.000000
0.860168 0.002716 0.000000
0.901215 0.002716 0.000000
0.937042 0.002716 0.000000
0.969391 0.002716 0.000000
1.000000 0.002716 0.000000
0.000000 0.009735 0.000000
0.000000 0.009735 0.000000
0.000000 0.009735 0.000000
0.000000 0.009735 0.000000
0.000000 0.009735 0.000000
0.000000 0.009735 0.000000
0.000000 0.009735 0.000000
0.000000 0.009735 0.000000
0.000000 0.009735 0.000000
0.002716 0.009735 0.000000
0.009735 0.009735 0.000000
0.018829 0.009735 0.000000
0.030273 0.009735 0.000000
0.044220 0.009735 0.000000
0.060913 0.009735 0.000000
0.080902 0.009735 0.000000
0.106628 0.009735 0.000000
0.140991 0.009735 0.000000
0.187012 0.009735 0.000000
0.247772 0.009735 0.000000
0.325989 0.009735 0.000000
0.418823 0.009735 0.000000
0.516418 0.009735 0.000000
0.608612 0.009735 0.000000
0.688049 0.009735 0.000000
0.755310 0.009735 0.000000
0.812103 0.009735 0.000000
0.860168 0.009735 0.000000
0.901215 0.009735 0.000000
0.937042 0.009735 0.000000
0.969391 0.009735 0.000000
1.000000 0.009735 0.000000
0.000000 0.018829 0.000000
0.000000 0.018829 0.000000
0.000000 0.018829 0.000000
0.000000 0.018829 0.000000
0.000000 0.018829 0.000000
0.000000 0.018829 0.000000
0.000000 0.018829 0.000000
0.000000 0.018829 0.000000
0.000000 0.018829 0.000000
0.002716 0.018829 0.000000
0.009735 0.018829 0.000000
0.018829 0.018829 0.000000
0.030273 0.018829 0.000000
0.044220 0.018829 0.000000
0.060913 0.018829 0.000000
0.080902 0.018829 0.000000
0.106628 0.018829 0.000000
0.140991 0.018829 0.000000
0.187012 0.018829 0.000000
0.247772 0.018829 0.000000
0.325989 0.018829 0.000000
0.418823 0.018829 0.000000
0.516418 0.018829 0.000000
0.608612 0.018829 0.000000
0.688049 0.018829 0.000000
0.755310 0.018829 0.000000
0.812103 0.018829 0.000000
0.860168 0.018829 0.000000
0.901215 0.018829 0.000000
0.937042 0.018829 0.000000
0.969391 0.018829 0.000000
1.000000 0.018829 0.000000
0.000000 0.030273 0.000000
0.000000 0.030273 0.000000
0.000000 0.030273 0.000000
0.000000 0.030273 0.000000
0.000000 0.030273 0.000000
0.000000 0.030273 0.000000
0.000000 0.030273 0.000000
0.000000 0.030273 0.000000
0.000000 0.030273 0.000000
0.002716 0.030273 0.000000
0.009735 0.030273 0.000000
0.018829 0.030273 0.000000
0.030273 0.030273 0.000000
0.044220 0.030273 0.000000
0.060913 0.030273 0.000000
0.080902 0.030273 0.000000
0.106628 0.030273 0.000000
0.140991 0.030273 0.000000
0.187012 0.030273 0.000000
0.247772 0.030273 0.000000
0.325989 0.030273 0.000000
0.418823 0.030273 0.000000
0.516418 0.030273 0.000000
0.608612 0.030273 0.000000
0.688049 0.030273 0.000000
0.755310 0.030273 0.000000
0.812103 0.030273 0.000000
0.860168 0.030273 0.000000
0.901215 0.030273 0.000000
0.937042 0.030273 0.000000
0.969391 0.030273 0.000000
1.000000 0.030273 0.000000
0.000000 0.044220 0.000000
0.000000 0.044220 0.000000
0.000000 0.044220 0.000000
0.000000 0.044220 0.000000
0.000000 0.044220 0.000000
0.000000 0.044220 0.000000
0.000000 0.044220 0.000000
0.000000 0.044220 0.000000
0.000000 0.044220 0.000000
0.002716 0.044220 0.000000
0.009735 0.044220 0.000000
0.018829 0.044220 0.000000
0.030273 0.044220 0.000000
0.044220 0.044220 0.000000
0.060913 0.044220 0.000000
0.080902 0.044220 0.000000
0.106628 0.044220 0.000000
0.140991 0.044220 0.000000
0.187012 0.044220 0.000000
0.247772 0.044220 0.000000
0.325989 0.044220 0.000000
0.418823 0.044220 0.000000
0.516418 0.044220 0.000000
0.608612 0.044220 0.000000
0.688049 0.044220 0.000000
0.755310 0.044220 0.000000
0.812103 0.044220 0.000000
0.860168 0.044220 0.000000
0.901215 0.044220 0.000000
0.937042 0.044220 0.000000
0.969391 0.044220 0.000000
1.000000 0.044220 0.000000
0.000000 0.060913 0.000000
0.000000 0.060913 0.000000
0.000000 0.060913 0.000000
0.000000 0.060913 0.000000
0.000000 0.060913 0.000000
0.000000 0.060913 0.000000
0.000000 0.060913 0.000000
0.000000 0.060913 0.000000
0.000000 0.060913 0.000000
0.002716 0.060913 0.000000
0.009735 0.060913 0.000000
0.018829 0.060913 0.000000
0.030273 0.060913 0.000000
0.044220 0.060913 0.000000
0.060913 0.060913 0.000000
0.080902 0.060913 0.000000
0.106628 0.060913 0.000000
0.140991 0.060913 0.000000
0.187012 0.060913 0.000000
0.247772 0.060913 0.000000
0.325989 0.060913 0.000000
0.418823 0.060913 0.000000
0.516418 0.060913 0.000000
0.608612 0.060913 0.000000
0.688049 0.060913 0.000000
0.755310 0.060913 0.000000
0.812103 0.060913 0.000000
0.860168 0.060913 0.000000
0.901215 0.060913 0.000000
0.937042 0.060913 0.000000
0.969391 0.060913 0.000000
1.000000 0.060913 0.000000
0.000000 0.080902 0.000000
0.000000 0.080902 0.000000
0.000000 0.080902 0.000000
0.000000 0.080902 0.000000
0.000000 0.080902 0.000000
0.000000 0.080902 0.000000
0.000000 0.080902 0.000000
0.000000 0.080902 0.000000
0.000000 0.080902 0.000000
0.002716 0.080902 0.000000
0.009735 0.080902 0.000000
0.018829 0.080902 0.000000
0.030273 0.080902 0.000000
0.044220 0.080902 0.000000
0.060913 0.080902 0.000000
0.080902 0.080902 0.000000
0.106628 0.080902 0.000000
0.140991 0.080902 0.000000
0.187012 0.080902 0.000000
0.247772 0.080902 0.000000
0.325989 0.080902 0.000000
0.418823 0.080902 0.000000
0.516418 0.080902 0.000000
0.608612 0.080902 0.000000
0.688049 0.080902 0.000000
0.755310 0.080902 0.000000
0.812103 0.080902 0.000000
0.860168 0.080902 0.000000
0.901215 0.080902 0.000000
0.937042 0.080902 0.000000
0.969391 0.080902 0.000000
1.000000 0.080902 0.000000
0.000000 0.106628 0.000000
0.000000 0.106628 0.000000
0.000000 0.106628 0.000000
0.000000 0.106628 0.000000
0.000000 0.106628 0.000000
0.000000 0.106628 0.000000
0.000000 0.106628 0.000000
0.000000 0.106628 0.000000
0.000000 0.106628 0.000000
0.002716 0.106628 0.000000
0.009735 0.106628 0.000000
0.018829 0.106628 0.000000
0.030273 0.106628 0.000000
0.044220 0.106628 0.000000
0.060913 0.106628 0.000000
0.080902 0.106628 0.000000
0.106628 0.106628 0.000000
0.140991 0.106628 0.000000
0.187012 0.106628 0.000000
0.247772 0.106628 0.000000
0.325989 0.106628 0.000000
0.418823 0.106628 0.000000
0.516418 0.106628 0.000000
0.608612 0.106628 0.000000
0.688049 0.106628 0.000000
0.755310 0.106628 0.000000
0.812103 0.106628 0.000000
0.860168 0.106628 0.000000
0.901215 0.106628 0.000000
0.937042 0.106628 0.000000
0.969391 0.106628 0.000000
1.000000 0.106628 0.000000
0.000000 0.140991 0.000000
0.000000 0.140991 0.000000
0.000000 0.140991 0.000000
0.000000 0.140991 0.000000
0.000000 0.140991 0.000000
0.000000 0.140991 0.000000
0.000000 0.140991 0.000000
0.000000 0.140991 0.000000
0.000000 0.140991 0.000000
0.002716 0.140991 0.000000
0.009735 0.140991 0.000000
0.018829 0.140991 0.000000
0.030273 0.140991 0.000000
0.044220 0.140991 0.000000
0.060913 0.140991 0.000000
0.080902 0.140991 0.000000
0.106628 0.140991 0.000000
0.140991 0.140991 0.000000
0.187012 0.140991 0.000000
0.247772 0.140991 0.000000
0.325989 0.140991 0.000000
0.418823 0.140991 0.000000
0.516418 0.140991 0.000000
0.608612 0.140991 0.000000
0.688049 0.140991 0.000000
0.755310 0.140991 0.000000
0.812103 0.140991 0.000000
0.860168 0.140991 0.000000
0.901215 0.140991 0.000000
0.937042 0.140991 0.000000
0.969391 0.140991 0.000000
1.000000 0.140991 0.000000
0.000000 0.187012 0.000000
0.000000 0.187012 0.000000
0.000000 0.187012 0.000000
0.000000 0.187012 0.000000
0.000000 0.187012 0.000000
0.000000 0.187012 0.000000
0.000000 0.187012 0.000000
0.000000 0.187012 0.000000
0.000000 0.187012 0.000000
0.002716 0.187012 0.000000
0.009735 0.187012 0.000000
0.018829 0.187012 0.000000
0.030273 0.187012 0.000000
0.044220 0.187012 0.000000
0.060913 0.187012 0.000000
0.080902 0.187012 0.000000
0.106628 0.187012 0.000000
0.140991 0.187012 0.000000
0.187012 0.187012 0.000000
0.247772 0.187012 0.000000
0.325989 0.187012 0.000000
0.418823 0.187012 0.000000
0.516418 0.187012 0.000000
0.608612 0.187012 0.000000
0.688049 0.187012 0.000000
0.755310 0.187012 0.000000
0.812103 0.187012 0.000000
0.860168 0.187012 0.000000
0.901215 0.187012 0.000000
0.937042 0.187012 0.000000
0.969391 0.187012 0.000000
1.000000 0.187012 0.000000
0.000000 0.247772 0.000000
0.000000 0.247772 0.000000
0.000000 0.247772 0.000000
0.000000 0.247772 0.000000
0.000000 0.247772 0.000000
0.000000 0.247772 0.000000
0.000000 0.247772 0.000000
0.000000 0.247772 0.000000
0.000000 0.247772 0.000000
0.002716 0.247772 0.000000
0.009735 0.247772 0.000000
0.018829 0.247772 0.000000
0.030273 0.247772 0.000000
0.044220 0.247772 0.000000
0.060913 0.247772 0.000000
0.080902 0.247772 0.000000
0.106628 0.247772 0.000000
0.140991 0.247772 0.000000
0.187012 0.247772 0.000000
0.247772 0.247772 0.000000
0.325989 0.247772 0.000000
0.418823 0.247772 0.000000
0.516418 0.247772 0.000000
0.608612 0.247772 0.000000
0.688049 0.247772 0.000000
0.755310 0.247772 0.000000
0.812103 0.247772 0.000000
0.860168 0.247772 0.000000
0.901215 0.247772 0.000000
0.937042 0.247772 0.000000
0.969391 0.247772 0.000000
1.000000 0.247772 0.000000
0.000000 0.325989 0.000000
0.000000 0.325989 0.000000
0.000000 0.325989 0.000000
0.000000 0.325989 0.000000
0.000000 0.325989 0.000000
0.000000 0.325989 0.000000
0.000000 0.325989 0.000000
0.000000 0.325989 0.000000
0.000000 0.325989 0.000000
0.002716 0.325989 0.000000
0.009735 0.325989 0.000000
0.018829 0.325989 0.000000
0.030273 0.325989 0.000000
0.044220 0.325989 0.000000
0.060913 0.325989 0.000000
0.080902 0.325989 0.000000
0.106628 0.325989 0.000000
0.140991 0.325989 0.000000
0.187012 0.325989 0.000000
0.247772 0.325989 0.000000
0.325989 0.325989 0.000000
0.418823 0.325989 0.000000
0.516418 0.325989 0.000000
0.608612 0.325989 0.000000
0.688049 0.325989 0.000000
0.755310 0.325989 0.000000
0.812103 0.325989 0.000000
0.860168 0.325989 0.000000
0.901215 0.325989 0.000000
0.937042 0.325989 0.000000
0.969391 0.325989 0.000000
1.000000 0.325989 0.000000
0.000000 0.418823 0.000000
0.000000 0.418823 0.000000
0.000000 0.418823 0.000000
0.000000 0.418823 0.000000
0.000000 0.418823 0.000000
0.000000 0.418823 0.000000
0.000000 0.418823 0.000000
0.000000 0.418823 0.000000
0.000000 0.418823 0.000000
0.002716 0.418823 0.000000
0.009735 0.418823 0.000000
0.018829 0.418823 0.000000
0.030273 0.418823 0.000000
0.044220 0.418823 0.000000
0.060913 0.418823 0.000000
0.080902 0.418823 0.000000
0.106628 0.418823 0.000000
0.140991 0.418823 0.000000
0.187012 0.418823 0.000000
0.247772 0.418823 0.000000
0.325989 0.418823 0.000000
0.418823 0.418823 0.000000
0.516418 0.418823 0.000000
0.608612 0.418823 0.000000
0.688049 0.418823 0.000000
0.755310 0.418823 0.000000
0.812103 0.418823 0.000000
0.860168 0.418823 0.000000
0.901215 0.418823 0.000000
0.937042 0.418823 0.000000
0.969391 0.418823 0.000000
1.000000 0.418823 0.000000
0.000000 0.516418 0.000000
0.000000 0.516418 0.000000
0.000000 0.516418 0.000000
0.000000 0.516418 0.000000
0.000000 0.516418 0.000000
0.000000 0.516418 0.000000
0.000000 0.516418 0.000000
0.000000 0.516418 0.000000
0.000000 0.516418 0.000000
0.002716 0.516418 0.000000
0.009735 0.516418 0.000000
0.018829 0.516418 0.000000
0.030273 0.516418 0.000000
0.044220 0.516418 0.000000
0.060913 0.516418 0.000000
0.080902 0.516418 0.000000
0.106628 0.516418 0.000000
0.140991 0.516418 0.000000
0.187012 0.516418 0.000000
0.247772 0.516418 0.000000
0.325989 0.516418 0.000000
0.418823 0.516418 0.000000
0.516418 0.516418 0.000000
0.608612 0.516418 0.000000
0.688049 0.516418 0.000000
0.755310 0.516418 0.000000
0.812103 0.516418 0.000000
0.860168 0.516418 0.000000
0.901215 0.516418 0.000000
0.937042 0.516418 0.000000
0.969391 0.516418 0.000000
1.000000 0.516418 0.000000
0.000000 0.608612 0.000000
0.000000 0.608612 0.000000
0.000000 0.608612 0.000000
0.000000 0.608612 0.000000
0.000000 0.608612 0.000000
0.000000 0.608612 0.000000
0.000000 0.608612 0.000000
0.000000 0.608612 0.000000
0.000000 0.608612 0.000000
0.002716 0.608612 0.000000
0.009735 0.608612 0.000000
0.018829 0.608612 0.000000
0.030273 0.608612 0.000000
0.044220 0.608612 0.000000
0.060913 0.608612 0.000000
0.080902 0.608612 0.000000
0.106628 0.608612 0.000000
0.140991 0.608612 0.000000
0.187012 0.608612 0.000000
0.247772 0.608612 0.000000
0.325989 0.608612 0.000000
0.418823 0.608612 0.000000
0.516418 0.608612 0.000000
0.608612 0.608612 0.000000
0.688049 0.608612 0.000000
0.755310 0.608612 0.000000
0.812103 0.608612 0.000000
0.860168 0.608612 0.000000
0.901215 0.608612 0.000000
0.937042 0.608612 0.000000
0.969391 0.608612 0.000000
1.000000 0.608612 0.000000
0.000000 0.688049 0.000000
0.000000 0.688049 0.000000
0.000000 0.688049 0.000000
0.000000 0.688049 0.000000
0.000000 0.688049 0.000000
0.000000 0.688049 0.000000
0.000000 0.688049 0.000000
0.000000 0.688049 0.000000
0.000000 0.688049 0.000000
0.002716 0.688049 0.000000
0.009735 0.688049 0.000000
0.018829 0.688049 0.000000
0.030273 0.688049 0.000000
0.044220 0.688049 0.000000
0.060913 0.688049 0.000000
0.080902 0.688049 0.000000
0.106628 0.688049 0.000000
0.140991 0.688049 0.000000
0.187012 0.688049 0.000000
0.247772 0.688049 0.000000
0.325989 0.688049 0.000000
0.418823 0.688049 0.000000
0.516418 0.688049 0.000000
0.608612 0.688049 0.000000
0.688049 0.688049 0.000000
0.755310 0.688049 0.000000
0.812103 0.688049 0.000000
0.860168 0.688049 0.000000
0.901215 0.688049 0.000000
0.937042 0.688049 0.000000
0.969391 0.688049 0.000000
1.000000 0.688049 0.000000
0.000000 0.755310 0.000000
0.000000 0.755310 0.000000
0.000000 0.755310 0.000000
0.000000 0.755310 0.000000
0.000000 0.755310 0.000000
0.000000 0.755310 0.000000
0.000000 0.755310 0.000000
0.000000 0.755310 0.000000
0.000000 0.755310 0.000000
0.002716 0.755310 0.000000
0.009735 0.755310 0.000000
0.018829 0.755310 0.000000
0.030273 0.755310 0.000000
0.044220 0.755310 0.000000
0.060913 0.755310 0.000000
0.080902 0.755310 0.000000
0.106628 0.755310 0.000000
0.140991 0.755310 0.000000
0.187012 0.755310 0.000000
0.247772 0.755310 0.000000
0.325989 0.755310 0.000000
0.418823 0.755310 0.000000
0.516418 0.755310 0.000000
0.608612 0.755310 0.000000
0.688049 0.755310 0.000000
0.755310 0.755310 0.000000
0.812103 0.755310 0.000000
0.860168 0.755310 0.000000
0.901215 0.755310 0.000000
0.937042 0.755310 0.000000
0.969391 0.755310 0.000000
1.000000 0.755310 0.000000
0.000000 0.812103 0.000000
0.000000 0.812103 0.000000
0.000000 0.812103 0.000000
0.000000 0.812103 0.000000
0.000000 0.812103 0.000000
0.000000 0.812103 0.000000
0.000000 0.812103 0.000000
0.000000 0.812103 0.000000
0.000000 0.812103 0.000000
0.002716 0.812103 0.000000
0.009735 0.812103 0.000000
0.018829 0.812103 0.000000
0.030273 0.812103 0.000000
0.044220 0.812103 0.000000
0.060913 0.812103 0.000000
0.080902 0.812103 0.000000
0.106628 0.812103 0.000000
0.140991 0.812103 0.000000
0.187012 0.812103 0.000000
0.247772 0.812103 0.000000
0.325989 0.812103 0.000000
0.418823 0.812103 0.000000
0.516418 0.812103 0.000000
0.608612 0.812103 0.000000
0.688049 0.812103 0.000000
0.755310 0.812103 0.000000
0.812103 0.812103 0.000000
0.860168 0.812103 0.000000
0.901215 0.812103 0.000000
0.937042 0.812103 0.000000
0.969391 0.812103 0.000000
1.000000 0.812103 0.000000
0.000000 0.860168 0.000000
0.000000 0.860168 0.000000
0.000000 0.860168 0.000000
0.000000 0.860168 0.000000
0.000000 0.860168 0.000000
0.000000 0.860168 0.000000
0.000000 0.860168 0.000000
0.000000 0.860168 0.000000
0.000000 0.860168 0.000000
0.002716 0.860168 0.000000
0.009735 0.860168 0.000000
0.018829 0.860168 0.000000
0.030273 0.860168 0.000000
0.044220 0.860168 0.000000
0.060913 0.860168 0.000000
0.080902 0.860168 0.000000
0.106628 0.860168 0.000000
0.140991 0.860168 0.000000
