static/TitleLUT.CUBE
#Created by: Adobe Photoshop Export Color Lookup Plugin
TITLE "TitleLUT"
#LUT size
LUT_3D_SIZE 5
#data domain
#LUT data points
DOMAIN_MIN 0.000000 0.000000 0.000000
DOMAIN_MAX 0.903226 0.903226 0.903226
0.000000 0.000000 0.000000
0.000000 0.000000 0.000000
0.060913 0.000000 0.000000
0.418823 0.000000 0.000000
0.901215 0.000000 0.000000
0.000000 0.000000 0.000000
0.000000 0.000000 0.000000
0.060913 0.000000 0.000000
0.418823 0.000000 0.000000
0.901215 0.000000 0.000000
0.000000 0.060913 0.000000
0.000000 0.060913 0.000000
0.060913 0.060913 0.000000
0.418823 0.060913 0.000000
0.901215 0.060913 0.000000
0.000000 0.418823 0.000000
0.000000 0.418823 0.000000
0.060913 0.418823 0.000000
0.418823 0.418823 0.000000
0.901215 0.418823 0.000000
0.000000 0.901215 0.000000
0.000000 0.901215 0.000000
0.060913 0.901215 0.000000
0.418823 0.901215 0.000000
0.901215 0.901215 0.000000
0.000000 0.000000 0.000000
0.000000 0.000000 0.000000
0.060913 0.000000 0.000000
0.418823 0.000000 0.000000
0.901215 0.000000 0.000000
0.000000 0.000000 0.000000
0.000000 0.000000 0.000000
0.060913 0.000000 0.000000
0.418823 0.000000 0.000000
0.901215 0.000000 0.000000
0.000000 0.060913 0.000000
0.000000 0.060913 0.000000
0.060913 0.060913 0.000000
0.418823 0.060913 0.000000
0.901215 0.060913 0.000000
0.000000 0.418823 0.000000
0.000000 0.418823 0.000000
0.060913 0.418823 0.000000
0.418823 0.418823 0.000000
0.901215 0.418823 0.000000
0.000000 0.901215 0.000000
0.000000 0.901215 0.000000
0.060913 0.901215 0.000000
0.418823 0.901215 0.000000
0.901215 0.901215 0.000000
0.000000 0.000000 0.060913
0.000000 0.000000 0.060913
0.060913 0.000000 0.060913
0.418823 0.000000 0.060913
0.901215 0.000000 0.060913
0.000000 0.000000 0.060913
0.000000 0.000000 0.060913
0.060913 0.000000 0.060913
0.418823 0.000000 0.060913
0.901215 0.000000 0.060913
0.000000 0.060913 0.060913
0.000000 0.060913 0.060913
0.060913 0.060913 0.060913
0.418823 0.060913 0.060913
0.901215 0.060913 0.060913
0.000000 0.418823 0.060913
0.000000 0.418823 0.060913
0.060913 0.418823 0.060913
0.418823 0.418823 0.060913
0.901215 0.418823 0.060913
0.000000 0.901215 0.060913
0.000000 0.901215 0.060913
0.060913 0.901215 0.060913
0.418823 0.901215 0.060913
0.901215 0.901215 0.060913
0.000000 0.000000 0.418823
0.000000 0.000000 0.418823
0.060913 0.000000 0.418823
0.418823 0.000000 0.418823
0.901215 0.000000 0.418823
0.000000 0.000000 0.418823
0.000000 0.000000 0.418823
0.060913 0.000000 0.418823
0.418823 0.000000 0.418823
0.901215 0.000000 0.418823
0.000000 0.060913 0.418823
0.000000 0.060913 0.418823
0.060913 0.060913 0.418823
0.418823 0.060913 0.418823
0.901215 0.060913 0.418823
0.000000 0.418823 0.418823
0.000000 0.418823 0.418823
0.060913 0.418823 0.418823
0.418823 0.418823 0.418823
0.901215 0.418823 0.418823
0.000000 0.901215 0.418823
0.000000 0.901215 0.418823
0.060913 0.901215 0.418823
0.418823 0.901215 0.418823
0.901215 0.901215 0.418823
0.000000 0.000000 0.901215
0.000000 0.000000 0.901215
0.060913 0.000000 0.901215
0.418823 0.000000 0.901215
0.901215 0.000000 0.901215
0.000000 0.000000 0.901215
0.000000 0.000000 0.901215
0.060913 0.000000 0.901215
0.418823 0.000000 0.901215
0.901215 0.000000 0.901215
0.000000 0.060913 0.901215
0.000000 0.060913 0.901215
0.060913 0.060913 0.901215
0.418823 0.060913 0.901215
0.901215 0.060913 0.901215
0.000000 0.418823 0.901215
0.000000 0.418823 0.901215
0.060913 0.418823 0.901215
0.418823 0.418823 0.901215
0.901215 0.418823 0.901215
0.000000 0.901215 0.901215
0.000000 0.901215 0.901215
0.060913 0.901215 0.901215
0.418823 0.901215 0.901215
0.901215 0.901215 0.901215
