static/TitleLUT.3DL
#Created by: Adobe Photoshop Export Color Lookup Plugin
#Description: TitleLUT
0 33 66 99 132 165 198 231 264 297 330 363 396 429 462 495 528 561 594 627 660 693 726 759 792 825 858 891 924 957 990 1023
0 0 0
0 0 0
0 0 0
0 0 0
0 0 0
0 0 0
0 0 0
0 0 0
0 0 0
0 0 11
0 0 40
0 0 77
0 0 124
0 0 181
0 0 249
0 0 331
0 0 437
0 0 577
0 0 766
0 0 1015
0 0 1335
0 0 1715
0 0 2115
0 0 2492
0 0 2818
0 0 3093
0 0 3326
0 0 3522
0 0 3690
0 0 3837
0 0 3970
0 0 4095
0 0 0
0 0 0
0 0 0
0 0 0
0 0 0
0 0 0
0 0 0
0 0 0
0 0 0
0 0 11
0 0 40
0 0 77
0 0 124
0 0 181
0 0 249
0 0 331
0 0 437
0 0 577
0 0 766
0 0 1015
0 0 1335
0 0 1715
0 0 2115
0 0 2492
0 0 2818
0 0 3093
0 0 3326
0 0 3522
0 0 3690
0 0 3837
0 0 3970
0 0 4095
0 0 0
0 0 0
0 0 0
0 0 0
0 0 0
0 0 0
0 0 0
0 0 0
0 0 0
0 0 11
0 0 40
0 0 77
0 0 124
0 0 181
0 0 249
0 0 331
0 0 437
0 0 577
0 0 766
0 0 1015
0 0 1335
0 0 1715
0 0 2115
0 0 2492
0 0 2818
0 0 3093
0 0 3326
0 0 3522
0 0 3690
0 0 3837
0 0 3970
0 0 4095
0 0 0
0 0 0
0 0 0
0 0 0
0 0 0
0 0 0
0 0 0
0 0 0
0 0 0
0 0 11
0 0 40
0 0 77
0 0 124
0 0 181
0 0 249
0 0 331
0 0 437
0 0 577
0 0 766
0 0 1015
0 0 1335
0 0 1715
0 0 2115
0 0 2492
0 0 2818
0 0 3093
0 0 3326
0 0 3522
0 0 3690
0 0 3837
0 0 3970
0 0 4095
0 0 0
0 0 0
0 0 0
0 0 0
0 0 0
0 0 0
0 0 0
0 0 0
0 0 0
0 0 11
0 0 40
0 0 77
0 0 124
0 0 181
0 0 249
0 0 331
0 0 437
0 0 577
0 0 766
0 0 1015
0 0 1335
0 0 1715
0 0 2115
0 0 2492
0 0 2818
0 0 3093
0 0 3326
0 0 3522
0 0 3690
0 0 3837
0 0 3970
0 0 4095
0 0 0
0 0 0
0 0 0
0 0 0
0 0 0
0 0 0
0 0 0
0 0 0
0 0 0
0 0 11
0 0 40
0 0 77
0 0 124
0 0 181
0 0 249
0 0 331
0 0 437
0 0 577
0 0 766
0 0 1015
0 0 1335
0 0 1715
0 0 2115
0 0 2492
0 0 2818
0 0 3093
0 0 3326
0 0 3522
0 0 3690
0 0 3837
0 0 3970
0 0 4095
0 0 0
0 0 0
0 0 0
0 0 0
0 0 0
0 0 0
0 0 0
0 0 0
0 0 0
0 0 11
0 0 40
0 0 77
0 0 124
0 0 181
0 0 249
0 0 331
0 0 437
0 0 577
0 0 766
0 0 1015
0 0 1335
0 0 1715
0 0 2115
0 0 2492
0 0 2818
0 0 3093
0 0 3326
0 0 3522
0 0 3690
0 0 3837
0 0 3970
0 0 4095
0 0 0
0 0 0
0 0 0
0 0 0
0 0 0
0 0 0
0 0 0
0 0 0
0 0 0
0 0 11
0 0 40
0 0 77
0 0 124
0 0 181
0 0 249
0 0 331
0 0 437
0 0 577
0 0 766
0 0 1015
0 0 1335
0 0 1715
0 0 2115
0 0 2492
0 0 2818
0 0 3093
0 0 3326
0 0 3522
0 0 3690
0 0 3837
0 0 3970
0 0 4095
0 0 0
0 0 0
0 0 0
0 0 0
0 0 0
0 0 0
0 0 0
0 0 0
0 0 0
0 0 11
0 0 40
0 0 77
0 0 124
0 0 181
0 0 249
0 0 331
0 0 437
0 0 577
0 0 766
0 0 1015
0 0 1335
0 0 1715
0 0 2115
0 0 2492
0 0 2818
0 0 3093
0 0 3326
0 0 3522
0 0 3690
0 0 3837
0 0 3970
0 0 4095
0 11 0
0 11 0
0 11 0
0 11 0
0 11 0
0 11 0
0 11 0
0 11 0
0 11 0
0 11 11
0 11 40
0 11 77
0 11 124
0 11 181
0 11 249
0 11 331
0 11 437
0 11 577
0 11 766
0 11 1015
0 11 1335
0 11 1715
0 11 2115
0 11 2492
0 11 2818
0 11 3093
0 11 3326
0 11 3522
0 11 3690
0 11 3837
0 11 3970
0 11 4095
0 40 0
0 40 0
0 40 0
0 40 0
0 40 0
0 40 0
0 40 0
0 40 0
0 40 0
0 40 11
0 40 40
0 40 77
0 40 124
0 40 181
0 40 249
0 40 331
0 40 437
0 40 577
0 40 766
0 40 1015
0 40 1335
0 40 1715
0 40 2115
0 40 2492
0 40 2818
0 40 3093
0 40 3326
0 40 3522
0 40 3690
0 40 3837
0 40 3970
0 40 4095
0 77 0
0 77 0
0 77 0
0 77 0
0 77 0
0 77 0
0 77 0
0 77 0
0 77 0
0 77 11
0 77 40
0 77 77
0 77 124
0 77 181
0 77 249
0 77 331
0 77 437
0 77 577
0 77 766
0 77 1015
0 77 1335
0 77 1715
0 77 2115
0 77 2492
0 77 2818
0 77 3093
0 77 3326
0 77 3522
0 77 3690
0 77 3837
0 77 3970
0 77 4095
0 124 0
0 124 0
0 124 0
0 124 0
0 124 0
0 124 0
0 124 0
0 124 0
0 124 0
0 124 11
0 124 40
0 124 77
0 124 124
0 124 181
0 124 249
0 124 331
0 124 437
0 124 577
0 124 766
0 124 1015
0 124 1335
0 124 1715
0 124 2115
0 124 2492
0 124 2818
0 124 3093
0 124 3326
0 124 3522
0 124 3690
0 124 3837
0 124 3970
0 124 4095
0 181 0
0 181 0
0 181 0
0 181 0
0 181 0
0 181 0
0 181 0
0 181 0
0 181 0
0 181 11
0 181 40
0 181 77
0 181 124
0 181 181
0 181 249
0 181 331
0 181 437
0 181 577
0 181 766
0 181 1015
0 181 1335
0 181 1715
0 181 2115
0 181 2492
0 181 2818
0 181 3093
0 181 3326
0 181 3522
0 181 3690
0 181 3837
0 181 3970
0 181 4095
0 249 0
0 249 0
0 249 0
0 249 0
0 249 0
0 249 0
0 249 0
0 249 0
0 249 0
0 249 11
0 249 40
0 249 77
0 249 124
0 249 181
0 249 249
0 249 331
0 249 437
0 249 577
0 249 766
0 249 1015
0 249 1335
0 249 1715
0 249 2115
0 249 2492
0 249 2818
0 249 3093
0 249 3326
0 249 3522
0 249 3690
0 249 3837
0 249 3970
0 249 4095
0 331 0
0 331 0
0 331 0
0 331 0
0 331 0
0 331 0
0 331 0
0 331 0
0 331 0
0 331 11
0 331 40
0 331 77
0 331 124
0 331 181
0 331 249
0 331 331
0 331 437
0 331 577
0 331 766
0 331 1015
0 331 1335
0 331 1715
0 331 2115
0 331 2492
0 331 2818
0 331 3093
0 331 3326
0 331 3522
0 331 3690
0 331 3837
0 331 3970
0 331 4095
0 437 0
0 437 0
0 437 0
0 437 0
0 437 0
0 437 0
0 437 0
0 437 0
0 437 0
0 437 11
0 437 40
0 437 77
0 437 124
0 437 181
0 437 249
0 437 331
0 437 437
0 437 577
0 437 766
0 437 1015
0 437 1335
0 437 1715
0 437 2115
0 437 2492
0 437 2818
0 437 3093
0 437 3326
0 437 3522
0 437 3690
0 437 3837
0 437 3970
0 437 4095
0 577 0
0 577 0
0 577 0
0 577 0
0 577 0
0 577 0
0 577 0
0 577 0
0 577 0
0 577 11
0 577 40
0 577 77
0 577 124
0 577 181
0 577 249
0 577 331
0 577 437
0 577 577
0 577 766
0 577 1015
0 577 1335
0 577 1715
0 577 2115
0 577 2492
0 577 2818
0 577 3093
0 577 3326
0 577 3522
0 577 3690
0 577 3837
0 577 3970
0 577 4095
0 766 0
0 766 0
0 766 0
0 766 0
0 766 0
0 766 0
0 766 0
0 766 0
0 766 0
0 766 11
0 766 40
0 766 77
0 766 124
0 766 181
0 766 249
0 766 331
0 766 437
0 766 577
0 766 766
0 766 1015
0 766 1335
0 766 1715
0 766 2115
0 766 2492
0 766 2818
0 766 3093
0 766 3326
0 766 3522
0 766 3690
0 766 3837
0 766 3970
0 766 4095
0 1015 0
0 1015 0
0 1015 0
0 1015 0
0 1015 0
0 1015 0
0 1015 0
0 1015 0
0 1015 0
0 1015 11
0 1015 40
0 1015 77
0 1015 124
0 1015 181
0 1015 249
0 1015 331
0 1015 437
0 1015 577
0 1015 766
0 1015 1015
0 1015 1335
0 1015 1715
0 1015 2115
0 1015 2492
0 1015 2818
0 1015 3093
0 1015 3326
0 1015 3522
0 1015 3690
0 1015 3837
0 1015 3970
0 1015 4095
0 1335 0
0 1335 0
0 1335 0
0 1335 0
0 1335 0
0 1335 0
0 1335 0
0 1335 0
0 1335 0
0 1335 11
0 1335 40
0 1335 77
0 1335 124
0 1335 181
0 1335 249
0 1335 331
0 1335 437
0 1335 577
0 1335 766
0 1335 1015
0 1335 1335
0 1335 1715
0 1335 2115
0 1335 2492
0 1335 2818
0 1335 3093
0 1335 3326
0 1335 3522
0 1335 3690
0 1335 3837
0 1335 3970
0 1335 4095
0 1715 0
0 1715 0
0 1715 0
0 1715 0
0 1715 0
0 1715 0
0 1715 0
0 1715 0
0 1715 0
0 1715 11
0 1715 40
0 1715 77
0 1715 124
0 1715 181
0 1715 249
0 1715 331
0 1715 437
0 1715 577
0 1715 766
0 1715 1015
0 1715 1335
0 1715 1715
0 1715 2115
0 1715 2492
0 1715 2818
0 1715 3093
0 1715 3326
0 1715 3522
0 1715 3690
0 1715 3837
0 1715 3970
0 1715 4095
0 2115 0
0 2115 0
0 2115 0
0 2115 0
0 2115 0
0 2115 0
0 2115 0
0 2115 0
0 2115 0
0 2115 11
0 2115 40
0 2115 77
0 2115 124
0 2115 181
0 2115 249
0 2115 331
0 2115 437
0 2115 577
0 2115 766
0 2115 1015
0 2115 1335
0 2115 1715
0 2115 2115
0 2115 2492
0 2115 2818
0 2115 3093
0 2115 3326
0 2115 3522
0 2115 3690
0 2115 3837
0 2115 3970
0 2115 4095
0 2492 0
0 2492 0
0 2492 0
0 2492 0
0 2492 0
0 2492 0
0 2492 0
0 2492 0
0 2492 0
0 2492 11
0 2492 40
0 2492 77
0 2492 124
0 2492 181
0 2492 249
0 2492 331
0 2492 437
0 2492 577
0 2492 766
0 2492 1015
0 2492 1335
0 2492 1715
0 2492 2115
0 2492 2492
0 2492 2818
0 2492 3093
0 2492 3326
0 2492 3522
0 2492 3690
0 2492 3837
0 2492 3970
0 2492 4095
0 2818 0
0 2818 0
0 2818 0
0 2818 0
0 2818 0
0 2818 0
0 2818 0
0 2818 0
0 2818 0
0 2818 11
0 2818 40
0 2818 77
0 2818 124
0 2818 181
0 2818 249
0 2818 331
0 2818 437
0 2818 577
0 2818 766
0 2818 1015
0 2818 1335
0 2818 1715
0 2818 2115
0 2818 2492
0 2818 2818
0 2818 3093
0 2818 3326
0 2818 3522
0 2818 3690
0 2818 3837
0 2818 3970
0 2818 4095
0 3093 0
0 3093 0
0 3093 0
0 3093 0
0 3093 0
0 3093 0
0 3093 0
0 3093 0
0 3093 0
0 3093 11
0 3093 40
0 3093 77
0 3093 124
0 3093 181
0 3093 249
0 3093 331
0 3093 437
0 3093 577
0 3093 766
0 3093 1015
0 3093 1335
0 3093 1715
0 3093 2115
0 3093 2492
0 3093 2818
0 3093 3093
0 3093 3326
0 3093 3522
0 3093 3690
0 3093 3837
0 3093 3970
0 3093 4095
0 3326 0
0 3326 0
0 3326 0
0 3326 0
0 3326 0
0 3326 0
0 3326 0
0 3326 0
0 3326 0
0 3326 11
0 3326 40
0 3326 77
0 3326 124
0 3326 181
0 3326 249
0 3326 331
0 3326 437
0 3326 577
0 3326 766
0 3326 1015
0 3326 1335
0 3326 1715
0 3326 2115
0 3326 2492
0 3326 2818
0 3326 3093
0 3326 3326
0 3326 3522
0 3326 3690
0 3326 3837
0 3326 3970
0 3326 4095
0 3522 0
0 3522 0
0 3522 0
0 3522 0
0 3522 0
0 3522 0
0 3522 0
0 3522 0
0 3522 0
0 3522 11
0 3522 40
0 3522 77
0 3522 124
0 3522 181
0 3522 249
0 3522 331
0 3522 437
0 3522 577
0 3522 766
0 3522 1015
0 3522 1335
0 3522 1715
0 3522 2115
0 3522 2492
0 3522 2818
0 3522 3093
0 3522 3326
0 3522 3522
0 3522 3690
0 3522 3837
0 3522 3970
0 3522 4095
0 3690 0
0 3690 0
0 3690 0
0 3690 0
