static/V2LUT.CUBE
#Generated by wwww.onlinelutcreator.com 
LUT_3D_SIZE 8 
DOMAIN_MIN 0.000000 0.000000 0.000000
DOMAIN_MAX 0.903226 0.903226 0.903226
0.000000 0.000000 0.000000
0.000000 0.000000 0.000000
0.019608 0.000000 0.000000
0.117647 0.000000 0.000000
0.227451 0.000000 0.000000
0.337255 0.000000 0.000000
0.462745 0.000000 0.000000
0.596078 0.000000 0.000000
0.000000 0.000000 0.000000
0.000000 0.000000 0.000000
0.019608 0.000000 0.000000
0.121569 0.000000 0.000000
0.231373 0.000000 0.000000
0.349020 0.000000 0.000000
0.470588 0.000000 0.000000
0.611765 0.000000 0.000000
0.000000 0.054902 0.000000
0.000000 0.054902 0.000000
0.023529 0.054902 0.000000
0.121569 0.062745 0.000000
0.239216 0.066667 0.000000
0.356863 0.078431 0.000000
0.486275 0.082353 0.000000
0.627451 0.090196 0.000000
0.000000 0.164706 0.000000
0.000000 0.164706 0.000000
0.035294 0.164706 0.000000
0.129412 0.164706 0.000000
0.239216 0.172549 0.000000
0.360784 0.184314 0.000000
0.498039 0.196078 0.000000
0.647059 0.207843 0.000000
0.000000 0.286275 0.000000
0.000000 0.282353 0.000000
0.039216 0.286275 0.000000
0.145098 0.286275 0.000000
0.250980 0.286275 0.000000
0.372549 0.301961 0.000000
0.509804 0.317647 0.000000
0.662745 0.333333 0.000000
0.000000 0.427451 0.000000
0.000000 0.423529 0.000000
0.047059 0.427451 0.000000
0.164706 0.431373 0.000000
0.278431 0.431373 0.000000
0.396078 0.435294 0.000000
0.533333 0.450980 0.000000
0.674510 0.466667 0.000000
0.000000 0.588235 0.000000
0.000000 0.592157 0.000000
0.047059 0.592157 0.000000
0.176471 0.596078 0.000000
0.305882 0.600000 0.000000
0.435294 0.600000 0.000000
0.564706 0.607843 0.000000
0.717647 0.627451 0.000000
0.000000 0.776471 0.000000
0.000000 0.780392 0.000000
0.054902 0.780392 0.000000
0.192157 0.792157 0.000000
0.333333 0.796078 0.000000
0.478431 0.803922 0.000000
0.619608 0.811765 0.000000
0.772549 0.815686 0.000000
0.000000 0.000000 0.000000
0.000000 0.000000 0.000000
0.019608 0.000000 0.000000
0.117647 0.000000 0.000000
0.227451 0.000000 0.003922
0.341176 0.000000 0.003922
0.466667 0.000000 0.003922
0.607843 0.000000 0.007843
0.000000 0.000000 0.000000
0.000000 0.000000 0.000000
0.027451 0.000000 0.000000
0.129412 0.000000 0.000000
0.243137 0.000000 0.003922
0.360784 0.000000 0.000000
0.490196 0.000000 0.000000
0.631373 0.000000 0.000000
0.000000 0.054902 0.000000
0.000000 0.058824 0.000000
0.023529 0.058824 0.000000
0.129412 0.062745 0.000000
0.243137 0.066667 0.003922
0.368627 0.074510 0.003922
0.501961 0.078431 0.000000
0.647059 0.078431 0.000000
0.000000 0.164706 0.000000
0.000000 0.168627 0.000000
0.035294 0.168627 0.000000
0.133333 0.168627 0.000000
0.247059 0.176471 0.003922
0.376471 0.188235 0.000000
0.509804 0.196078 0.000000
0.662745 0.203922 0.000000
0.000000 0.286275 0.000000
0.000000 0.294118 0.000000
0.035294 0.294118 0.000000
0.149020 0.294118 0.000000
0.250980 0.294118 0.003922
0.376471 0.305882 0.000000
0.521569 0.317647 0.000000
0.682353 0.337255 0.000000
0.000000 0.427451 0.000000
0.000000 0.431373 0.000000
0.035294 0.435294 0.000000
0.156863 0.431373 0.000000
0.278431 0.435294 0.000000
0.396078 0.435294 0.000000
0.537255 0.450980 0.000000
0.694118 0.470588 0.000000
0.000000 0.592157 0.000000
0.000000 0.596078 0.000000
0.027451 0.596078 0.000000
0.164706 0.600000 0.000000
0.298039 0.607843 0.000000
0.431373 0.611765 0.000000
0.572549 0.615686 0.000000
0.725490 0.631373 0.000000
0.000000 0.784314 0.000000
0.000000 0.792157 0.000000
0.023529 0.796078 0.000000
0.168627 0.800000 0.000000
0.317647 0.811765 0.000000
0.466667 0.815686 0.000000
0.619608 0.819608 0.000000
0.780392 0.831373 0.000000
0.000000 0.000000 0.090196
0.000000 0.000000 0.090196
0.027451 0.000000 0.090196
0.121569 0.000000 0.094118
0.227451 0.000000 0.098039
0.349020 0.000000 0.109804
0.470588 0.000000 0.113725
0.611765 0.000000 0.117647
0.000000 0.000000 0.094118
0.000000 0.000000 0.094118
0.027451 0.000000 0.094118
0.129412 0.000000 0.098039
0.243137 0.000000 0.101961
0.368627 0.000000 0.113725
0.498039 0.000000 0.113725
0.643137 0.000000 0.117647
0.000000 0.054902 0.090196
0.000000 0.058824 0.094118
0.027451 0.062745 0.098039
0.133333 0.074510 0.109804
0.250980 0.074510 0.113725
0.380392 0.074510 0.113725
0.517647 0.066667 0.109804
0.670588 0.062745 0.109804
0.000000 0.164706 0.098039
0.000000 0.168627 0.101961
0.035294 0.172549 0.109804
0.137255 0.172549 0.109804
0.258824 0.184314 0.109804
0.388235 0.188235 0.109804
0.525490 0.192157 0.109804
0.682353 0.192157 0.101961
0.000000 0.286275 0.101961
0.000000 0.294118 0.109804
0.027451 0.298039 0.109804
0.145098 0.298039 0.109804
0.262745 0.301961 0.109804
0.388235 0.313725 0.113725
0.537255 0.321569 0.109804
0.694118 0.333333 0.101961
0.000000 0.427451 0.109804
0.000000 0.435294 0.109804
0.023529 0.435294 0.109804
0.149020 0.443137 0.109804
0.278431 0.443137 0.109804
0.403922 0.447059 0.109804
0.545098 0.458824 0.109804
0.709804 0.478431 0.098039
0.000000 0.596078 0.101961
0.000000 0.600000 0.098039
0.007843 0.611765 0.098039
0.149020 0.607843 0.101961
0.286275 0.611765 0.101961
0.427451 0.615686 0.101961
0.572549 0.615686 0.098039
0.737255 0.631373 0.094118
0.000000 0.792157 0.094118
0.000000 0.796078 0.090196
0.000000 0.800000 0.090196
0.145098 0.811765 0.090196
0.298039 0.815686 0.090196
0.450980 0.819608 0.090196
0.615686 0.827451 0.082353
0.780392 0.831373 0.082353
0.000000 0.000000 0.203922
0.000000 0.000000 0.203922
0.035294 0.000000 0.203922
0.137255 0.000000 0.203922
0.243137 0.000000 0.207843
0.352941 0.000000 0.211765
0.478431 0.000000 0.223529
0.615686 0.000000 0.231373
0.000000 0.000000 0.203922
0.000000 0.000000 0.207843
0.035294 0.000000 0.207843
0.137255 0.000000 0.207843
0.247059 0.000000 0.211765
0.368627 0.000000 0.223529
0.501961 0.000000 0.231373
0.647059 0.000000 0.239216
0.000000 0.066667 0.207843
0.000000 0.066667 0.207843
0.027451 0.066667 0.211765
0.137255 0.074510 0.211765
0.250980 0.074510 0.223529
0.380392 0.074510 0.227451
0.521569 0.066667 0.231373
0.674510 0.062745 0.231373
0.000000 0.168627 0.203922
0.000000 0.172549 0.207843
0.035294 0.172549 0.211765
0.145098 0.184314 0.223529
0.262745 0.188235 0.227451
0.392157 0.192157 0.231373
0.541176 0.192157 0.231373
0.705882 0.184314 0.227451
0.000000 0.286275 0.219608
0.000000 0.294118 0.219608
0.027451 0.298039 0.223529
0.149020 0.305882 0.231373
0.262745 0.305882 0.227451
0.396078 0.317647 0.231373
0.552941 0.321569 0.231373
0.721569 0.329412 0.227451
0.000000 0.427451 0.227451
0.000000 0.435294 0.227451
0.019608 0.443137 0.227451
0.145098 0.447059 0.231373
0.274510 0.450980 0.231373
0.407843 0.450980 0.231373
0.556863 0.462745 0.227451
0.729412 0.478431 0.223529
0.000000 0.596078 0.239216
0.000000 0.600000 0.231373
0.000000 0.607843 0.227451
0.129412 0.615686 0.227451
0.278431 0.619608 0.227451
0.423529 0.619608 0.227451
0.576471 0.627451 0.223529
0.745098 0.643137 0.219608
0.000000 0.792157 0.239216
0.000000 0.800000 0.231373
0.000000 0.811765 0.219608
0.109804 0.819608 0.211765
0.274510 0.827451 0.211765
0.443137 0.831373 0.211765
0.611765 0.831373 0.211765
0.780392 0.835294 0.211765
0.000000 0.000000 0.333333
0.000000 0.000000 0.333333
0.047059 0.000000 0.333333
0.152941 0.000000 0.329412
0.258824 0.000000 0.329412
0.372549 0.000000 0.337255
0.490196 0.000000 0.341176
0.627451 0.000000 0.352941
0.000000 0.000000 0.337255
0.000000 0.000000 0.337255
0.039216 0.000000 0.337255
0.152941 0.000000 0.337255
0.262745 0.000000 0.337255
0.380392 0.000000 0.341176
0.505882 0.000000 0.349020
0.650980 0.000000 0.360784
0.000000 0.074510 0.333333
0.000000 0.074510 0.337255
0.035294 0.074510 0.349020
0.149020 0.074510 0.341176
0.262745 0.074510 0.341176
0.392157 0.066667 0.352941
0.525490 0.066667 0.356863
0.686275 0.058824 0.368627
0.000000 0.184314 0.337255
0.000000 0.188235 0.337255
0.027451 0.188235 0.341176
0.149020 0.188235 0.349020
0.262745 0.188235 0.349020
0.396078 0.192157 0.356863
0.545098 0.188235 0.368627
0.709804 0.184314 0.372549
0.000000 0.298039 0.337255
0.000000 0.301961 0.341176
0.023529 0.301961 0.349020
0.145098 0.305882 0.352941
0.274510 0.317647 0.356863
0.407843 0.321569 0.368627
0.560784 0.321569 0.372549
0.737255 0.317647 0.372549
0.000000 0.427451 0.349020
0.000000 0.435294 0.352941
0.011765 0.443137 0.356863
0.137255 0.447059 0.360784
0.274510 0.458824 0.372549
0.407843 0.458824 0.368627
0.572549 0.466667 0.368627
0.745098 0.478431 0.368627
0.000000 0.596078 0.372549
0.000000 0.600000 0.372549
0.000000 0.607843 0.372549
0.117647 0.619608 0.368627
0.262745 0.631373 0.368627
0.415686 0.631373 0.368627
0.580392 0.631373 0.368627
0.760784 0.647059 0.360784
0.000000 0.792157 0.388235
0.000000 0.800000 0.380392
0.000000 0.811765 0.372549
0.078431 0.827451 0.360784
0.243137 0.831373 0.360784
0.423529 0.835294 0.356863
0.600000 0.839216 0.356863
0.784314 0.847059 0.356863
0.000000 0.000000 0.470588
0.000000 0.000000 0.478431
0.058824 0.000000 0.478431
0.168627 0.000000 0.470588
0.282353 0.000000 0.470588
0.396078 0.000000 0.470588
0.521569 0.000000 0.486275
0.650980 0.000000 0.490196
0.000000 0.000000 0.482353
0.000000 0.000000 0.482353
0.043137 0.000000 0.482353
0.164706 0.000000 0.486275
0.282353 0.000000 0.486275
0.403922 0.000000 0.482353
0.537255 0.000000 0.490196
0.670588 0.000000 0.498039
0.000000 0.078431 0.482353
0.000000 0.078431 0.486275
0.035294 0.074510 0.490196
0.156863 0.074510 0.490196
0.282353 0.066667 0.490196
0.407843 0.066667 0.490196
0.545098 0.062745 0.498039
0.690196 0.058824 0.505882
0.000000 0.196078 0.486275
0.000000 0.192157 0.486275
0.019608 0.192157 0.498039
0.145098 0.188235 0.501961
0.278431 0.188235 0.498039
0.407843 0.188235 0.498039
0.556863 0.188235 0.505882
0.717647 0.184314 0.517647
0.000000 0.317647 0.490196
0.000000 0.321569 0.490196
0.007843 0.321569 0.498039
0.137255 0.317647 0.501961
0.274510 0.317647 0.505882
0.411765 0.321569 0.505882
0.564706 0.321569 0.517647
0.741176 0.317647 0.525490
0.000000 0.447059 0.490196
0.000000 0.450980 0.498039
0.003922 0.450980 0.498039
0.133333 0.458824 0.501961
0.266667 0.458824 0.505882
0.415686 0.466667 0.521569
0.580392 0.470588 0.525490
0.764706 0.470588 0.525490
0.000000 0.600000 0.505882
0.000000 0.607843 0.509804
0.000000 0.611765 0.509804
0.113725 0.619608 0.521569
0.258824 0.631373 0.521569
0.411765 0.643137 0.525490
0.580392 0.643137 0.525490
0.776471 0.650980 0.521569
0.000000 0.792157 0.537255
0.000000 0.803922 0.541176
0.000000 0.815686 0.537255
0.074510 0.831373 0.537255
0.227451 0.835294 0.533333
0.396078 0.850980 0.521569
0.592157 0.850980 0.521569
0.792157 0.854902 0.521569
0.000000 0.000000 0.635294
0.000000 0.000000 0.643137
0.066667 0.000000 0.643137
0.188235 0.000000 0.643137
0.313725 0.000000 0.635294
0.435294 0.000000 0.643137
0.560784 0.000000 0.643137
0.701961 0.000000 0.650980
0.000000 0.000000 0.650980
0.000000 0.000000 0.650980
0.047059 0.000000 0.650980
0.176471 0.000000 0.650980
0.305882 0.000000 0.654902
0.435294 0.000000 0.654902
0.572549 0.000000 0.654902
0.709804 0.000000 0.666667
0.000000 0.082353 0.650980
0.000000 0.074510 0.662745
0.027451 0.074510 0.662745
0.156863 0.066667 0.662745
0.298039 0.066667 0.666667
0.431373 0.062745 0.666667
0.576471 0.058824 0.666667
0.725490 0.054902 0.674510
0.000000 0.207843 0.662745
0.000000 0.203922 0.666667
0.003922 0.192157 0.670588
0.137255 0.188235 0.674510
0.286275 0.184314 0.670588
0.431373 0.188235 0.674510
0.576471 0.184314 0.674510
0.741176 0.176471 0.686275
0.000000 0.341176 0.666667
0.000000 0.337255 0.666667
0.000000 0.333333 0.674510
0.121569 0.329412 0.682353
0.274510 0.321569 0.686275
0.427451 0.321569 0.686275
0.580392 0.317647 0.690196
0.756863 0.317647 0.694118
0.000000 0.482353 0.670588
0.000000 0.482353 0.674510
0.000000 0.478431 0.682353
0.113725 0.478431 0.686275
0.258824 0.478431 0.690196
0.415686 0.470588 0.701961
0.588235 0.470588 0.701961
0.772549 0.466667 0.705882
0.000000 0.631373 0.674510
0.000000 0.631373 0.682353
0.000000 0.631373 0.682353
0.098039 0.635294 0.686275
0.247059 0.643137 0.694118
0.407843 0.647059 0.701961
0.588235 0.647059 0.709804
0.780392 0.650980 0.717647
0.000000 0.796078 0.690196
0.000000 0.803922 0.701961
0.000000 0.815686 0.701961
0.062745 0.831373 0.709804
0.223529 0.835294 0.709804
0.388235 0.850980 0.717647
0.580392 0.854902 0.721569
0.784314 0.854902 0.717647
0.000000 0.000000 0.831373
0.000000 0.000000 0.831373
0.078431 0.000000 0.831373
0.207843 0.000000 0.835294
0.341176 0.000000 0.835294
0.482353 0.000000 0.839216
0.615686 0.000000 0.839216
0.756863 0.000000 0.839216
0.000000 0.000000 0.847059
0.000000 0.000000 0.847059
0.054902 0.000000 0.850980
0.192157 0.000000 0.850980
0.333333 0.000000 0.850980
0.470588 0.000000 0.854902
0.615686 0.000000 0.854902
0.764706 0.000000 0.854902
0.000000 0.082353 0.854902
0.000000 0.066667 0.858824
0.019608 0.066667 0.870588
0.164706 0.062745 0.870588
0.313725 0.058824 0.874510
0.466667 0.054902 0.874510
0.619608 0.047059 0.874510
0.772549 0.043137 0.870588
0.000000 0.219608 0.866667
0.000000 0.207843 0.870588
0.000000 0.188235 0.886275
0.133333 0.188235 0.886275
0.294118 0.184314 0.886275
0.450980 0.176471 0.890196
0.615686 0.172549 0.890196
0.784314 0.168627 0.890196
0.000000 0.360784 0.878431
0.000000 0.356863 0.878431
0.000000 0.341176 0.894118
0.098039 0.329412 0.894118
0.262745 0.321569 0.901961
0.431373 0.317647 0.901961
0.607843 0.313725 0.905882
0.792157 0.305882 0.905882
0.000000 0.521569 0.890196
0.000000 0.509804 0.890196
0.000000 0.501961 0.894118
0.078431 0.490196 0.905882
0.239216 0.482353 0.909804
0.407843 0.470588 0.921569
0.600000 0.466667 0.921569
0.796078 0.466667 0.925490
0.000000 0.682353 0.901961
0.000000 0.674510 0.901961
0.000000 0.670588 0.905882
0.058824 0.670588 0.913725
0.219608 0.662745 0.913725
0.388235 0.654902 0.929412
0.580392 0.650980 0.929412
0.792157 0.650980 0.929412
0.000000 0.847059 0.901961
0.000000 0.854902 0.909804
0.000000 0.854902 0.909804
0.027451 0.858824 0.921569
0.196078 0.858824 0.925490
0.372549 0.866667 0.933333
0.572549 0.858824 0.933333
0.792157 0.866667 0.945098
