static/V2LUT.CUBE
#Generated by wwww.onlinelutcreator.com 
LUT_3D_SIZE 32 
0.000000 0.000000 0.000000
0.000000 0.000000 0.000000
0.000000 0.000000 0.000000
0.000000 0.000000 0.000000
0.000000 0.000000 0.000000
0.000000 0.000000 0.000000
0.000000 0.000000 0.000000
0.000000 0.000000 0.000000
0.019608 0.000000 0.000000
0.043137 0.000000 0.000000
0.066667 0.000000 0.000000
0.094118 0.000000 0.000000
0.117647 0.000000 0.000000
0.145098 0.000000 0.000000
0.172549 0.000000 0.000000
0.196078 0.000000 0.000000
0.227451 0.000000 0.000000
0.250980 0.000000 0.000000
0.282353 0.000000 0.000000
0.313725 0.000000 0.000000
0.337255 0.000000 0.000000
0.368627 0.000000 0.000000
0.396078 0.000000 0.000000
0.431373 0.000000 0.000000
0.462745 0.000000 0.000000
0.498039 0.000000 0.000000
0.525490 0.000000 0.000000
0.560784 0.000000 0.000000
0.596078 0.000000 0.000000
0.631373 0.000000 0.000000
0.666667 0.000000 0.000000
0.701961 0.000000 0.000000
0.000000 0.000000 0.000000
0.000000 0.000000 0.000000
0.000000 0.000000 0.000000
0.000000 0.000000 0.000000
0.000000 0.000000 0.000000
0.000000 0.000000 0.000000
0.000000 0.000000 0.000000
0.000000 0.000000 0.000000
0.019608 0.000000 0.000000
0.043137 0.000000 0.000000
0.066667 0.000000 0.000000
0.094118 0.000000 0.000000
0.117647 0.000000 0.000000
0.149020 0.000000 0.000000
0.172549 0.000000 0.000000
0.203922 0.000000 0.000000
0.227451 0.000000 0.000000
0.250980 0.000000 0.000000
0.282353 0.000000 0.000000
0.313725 0.000000 0.000000
0.341176 0.000000 0.000000
0.372549 0.000000 0.000000
0.403922 0.000000 0.000000
0.431373 0.000000 0.000000
0.462745 0.000000 0.000000
0.498039 0.000000 0.000000
0.533333 0.000000 0.000000
0.564706 0.000000 0.000000
0.600000 0.000000 0.000000
0.631373 0.000000 0.000000
0.666667 0.000000 0.000000
0.705882 0.000000 0.000000
0.000000 0.000000 0.000000
0.000000 0.000000 0.000000
0.000000 0.000000 0.000000
0.000000 0.000000 0.000000
0.000000 0.000000 0.000000
0.000000 0.000000 0.000000
0.000000 0.000000 0.000000
0.000000 0.000000 0.000000
0.019608 0.000000 0.000000
0.043137 0.000000 0.000000
0.066667 0.000000 0.000000
0.094118 0.000000 0.000000
0.121569 0.000000 0.000000
0.149020 0.000000 0.000000
0.172549 0.000000 0.000000
0.196078 0.000000 0.000000
0.227451 0.000000 0.000000
0.258824 0.000000 0.000000
0.282353 0.000000 0.000000
0.313725 0.000000 0.000000
0.341176 0.000000 0.000000
0.372549 0.000000 0.000000
0.403922 0.000000 0.000000
0.435294 0.000000 0.000000
0.466667 0.000000 0.000000
0.498039 0.000000 0.000000
0.537255 0.000000 0.000000
0.572549 0.000000 0.000000
0.600000 0.000000 0.000000
0.635294 0.000000 0.000000
0.670588 0.000000 0.000000
0.709804 0.000000 0.000000
0.000000 0.000000 0.000000
0.000000 0.000000 0.000000
0.000000 0.000000 0.000000
0.000000 0.000000 0.000000
0.000000 0.000000 0.000000
0.000000 0.000000 0.000000
0.000000 0.000000 0.000000
0.000000 0.000000 0.000000
0.023529 0.000000 0.000000
0.043137 0.000000 0.000000
0.066667 0.000000 0.000000
0.094118 0.000000 0.000000
0.121569 0.000000 0.000000
0.149020 0.000000 0.000000
0.172549 0.000000 0.000000
0.203922 0.000000 0.000000
0.227451 0.000000 0.000000
0.258824 0.000000 0.000000
0.286275 0.000000 0.000000
0.317647 0.000000 0.000000
0.349020 0.000000 0.000000
0.376471 0.000000 0.000000
0.407843 0.000000 0.000000
0.435294 0.000000 0.000000
0.470588 0.000000 0.000000
0.501961 0.000000 0.000000
0.541176 0.000000 0.000000
0.572549 0.000000 0.000000
0.607843 0.000000 0.000000
0.643137 0.000000 0.000000
0.674510 0.000000 0.000000
0.717647 0.000000 0.000000
0.000000 0.000000 0.000000
0.000000 0.000000 0.000000
0.000000 0.000000 0.000000
0.000000 0.000000 0.000000
0.000000 0.000000 0.000000
0.000000 0.000000 0.000000
0.000000 0.000000 0.000000
0.000000 0.000000 0.000000
0.019608 0.000000 0.000000
0.043137 0.000000 0.000000
0.066667 0.000000 0.000000
0.098039 0.000000 0.000000
0.121569 0.000000 0.000000
0.149020 0.000000 0.000000
0.172549 0.000000 0.000000
0.203922 0.000000 0.000000
0.231373 0.000000 0.000000
0.258824 0.000000 0.000000
0.286275 0.000000 0.000000
0.317647 0.000000 0.000000
0.349020 0.000000 0.000000
0.376471 0.000000 0.000000
0.411765 0.000000 0.000000
0.443137 0.000000 0.000000
0.470588 0.000000 0.000000
0.505882 0.000000 0.000000
0.537255 0.000000 0.000000
0.576471 0.000000 0.000000
0.611765 0.000000 0.000000
0.647059 0.000000 0.000000
0.682353 0.000000 0.000000
0.717647 0.000000 0.000000
0.000000 0.000000 0.000000
0.000000 0.000000 0.000000
0.000000 0.000000 0.000000
0.000000 0.000000 0.000000
0.000000 0.000000 0.000000
0.000000 0.000000 0.000000
0.000000 0.000000 0.000000
0.000000 0.000000 0.000000
0.019608 0.000000 0.000000
0.043137 0.000000 0.000000
0.066667 0.000000 0.000000
0.098039 0.000000 0.000000
0.121569 0.000000 0.000000
0.149020 0.000000 0.000000
0.176471 0.000000 0.000000
0.203922 0.000000 0.000000
0.231373 0.000000 0.000000
0.262745 0.000000 0.000000
0.294118 0.000000 0.000000
0.321569 0.000000 0.000000
0.352941 0.000000 0.000000
0.380392 0.000000 0.000000
0.411765 0.000000 0.000000
0.443137 0.000000 0.000000
0.478431 0.000000 0.000000
0.505882 0.000000 0.000000
0.541176 0.003922 0.000000
0.580392 0.003922 0.000000
0.615686 0.003922 0.000000
0.650980 0.003922 0.000000
0.686275 0.003922 0.000000
0.721569 0.003922 0.000000
0.000000 0.003922 0.000000
0.000000 0.003922 0.000000
0.000000 0.003922 0.000000
0.000000 0.003922 0.000000
0.000000 0.003922 0.000000
0.000000 0.003922 0.000000
0.000000 0.003922 0.000000
0.000000 0.003922 0.000000
0.019608 0.007843 0.000000
0.043137 0.007843 0.000000
0.074510 0.007843 0.000000
0.094118 0.011765 0.000000
0.121569 0.011765 0.000000
0.149020 0.011765 0.000000
0.176471 0.019608 0.000000
0.203922 0.019608 0.000000
0.231373 0.019608 0.000000
0.262745 0.019608 0.000000
0.294118 0.019608 0.000000
0.321569 0.019608 0.000000
0.352941 0.023529 0.000000
0.380392 0.023529 0.000000
0.415686 0.027451 0.000000
0.447059 0.027451 0.000000
0.482353 0.027451 0.000000
0.509804 0.027451 0.000000
0.545098 0.027451 0.000000
0.588235 0.027451 0.000000
0.619608 0.035294 0.000000
0.654902 0.035294 0.000000
0.690196 0.035294 0.000000
0.729412 0.035294 0.000000
0.000000 0.027451 0.000000
0.000000 0.027451 0.000000
0.000000 0.027451 0.000000
0.000000 0.027451 0.000000
0.000000 0.027451 0.000000
0.000000 0.027451 0.000000
0.000000 0.027451 0.000000
0.000000 0.027451 0.000000
0.019608 0.027451 0.000000
0.047059 0.027451 0.000000
0.074510 0.035294 0.000000
0.094118 0.035294 0.000000
0.121569 0.035294 0.000000
0.149020 0.039216 0.000000
0.176471 0.039216 0.000000
0.207843 0.043137 0.000000
0.231373 0.043137 0.000000
0.262745 0.047059 0.000000
0.294118 0.047059 0.000000
0.321569 0.047059 0.000000
0.352941 0.047059 0.000000
0.388235 0.047059 0.000000
0.415686 0.047059 0.000000
0.450980 0.054902 0.000000
0.482353 0.058824 0.000000
0.517647 0.058824 0.000000
0.552941 0.058824 0.000000
0.580392 0.058824 0.000000
0.619608 0.062745 0.000000
0.662745 0.062745 0.000000
0.694118 0.062745 0.000000
0.737255 0.062745 0.000000
0.000000 0.054902 0.000000
0.000000 0.054902 0.000000
0.000000 0.054902 0.000000
0.000000 0.054902 0.000000
0.000000 0.054902 0.000000
0.000000 0.054902 0.000000
0.000000 0.054902 0.000000
0.000000 0.054902 0.000000
0.023529 0.054902 0.000000
0.047059 0.054902 0.000000
0.066667 0.058824 0.000000
0.098039 0.058824 0.000000
0.121569 0.062745 0.000000
0.152941 0.062745 0.000000
0.176471 0.062745 0.000000
0.207843 0.066667 0.000000
0.239216 0.066667 0.000000
0.266667 0.066667 0.000000
0.298039 0.074510 0.000000
0.329412 0.078431 0.000000
0.356863 0.078431 0.000000
0.388235 0.078431 0.000000
0.423529 0.078431 0.000000
0.450980 0.078431 0.000000
0.486275 0.082353 0.000000
0.517647 0.082353 0.000000
0.552941 0.082353 0.000000
0.588235 0.090196 0.000000
0.627451 0.090196 0.000000
0.662745 0.090196 0.000000
0.701961 0.090196 0.000000
0.737255 0.094118 0.000000
0.000000 0.078431 0.000000
0.000000 0.078431 0.000000
0.000000 0.078431 0.000000
0.000000 0.078431 0.000000
0.000000 0.078431 0.000000
0.000000 0.078431 0.000000
0.000000 0.082353 0.000000
0.000000 0.082353 0.000000
0.023529 0.082353 0.000000
0.043137 0.078431 0.000000
0.074510 0.082353 0.000000
0.098039 0.082353 0.000000
0.121569 0.082353 0.000000
0.152941 0.090196 0.000000
0.176471 0.094118 0.000000
0.203922 0.094118 0.000000
0.231373 0.094118 0.000000
0.262745 0.098039 0.000000
0.294118 0.098039 0.000000
0.321569 0.098039 0.000000
0.356863 0.101961 0.000000
0.392157 0.109804 0.000000
0.423529 0.109804 0.000000
0.458824 0.109804 0.000000
0.486275 0.113725 0.000000
0.521569 0.113725 0.000000
0.556863 0.113725 0.000000
0.592157 0.113725 0.000000
0.631373 0.117647 0.000000
0.666667 0.117647 0.000000
0.705882 0.121569 0.000000
0.741176 0.121569 0.000000
0.000000 0.109804 0.000000
0.000000 0.109804 0.000000
0.000000 0.109804 0.000000
0.000000 0.109804 0.000000
0.000000 0.109804 0.000000
0.000000 0.101961 0.000000
0.000000 0.101961 0.000000
0.000000 0.101961 0.000000
0.027451 0.101961 0.000000
0.047059 0.109804 0.000000
0.074510 0.109804 0.000000
0.098039 0.109804 0.000000
0.129412 0.109804 0.000000
0.152941 0.113725 0.000000
0.176471 0.113725 0.000000
0.207843 0.117647 0.000000
0.239216 0.121569 0.000000
0.266667 0.121569 0.000000
0.298039 0.121569 0.000000
0.329412 0.129412 0.000000
0.356863 0.129412 0.000000
0.392157 0.133333 0.000000
0.427451 0.133333 0.000000
0.458824 0.133333 0.000000
0.490196 0.145098 0.000000
0.525490 0.145098 0.000000
0.560784 0.145098 0.000000
0.596078 0.149020 0.000000
0.635294 0.149020 0.000000
0.670588 0.149020 0.000000
0.709804 0.152941 0.000000
0.745098 0.152941 0.000000
0.000000 0.137255 0.000000
0.000000 0.133333 0.000000
0.000000 0.133333 0.000000
0.000000 0.133333 0.000000
0.000000 0.133333 0.000000
0.000000 0.133333 0.000000
0.000000 0.133333 0.000000
0.003922 0.133333 0.000000
0.027451 0.133333 0.000000
0.054902 0.133333 0.000000
0.078431 0.133333 0.000000
0.101961 0.133333 0.000000
0.129412 0.133333 0.000000
0.152941 0.137255 0.000000
0.176471 0.137255 0.000000
0.207843 0.145098 0.000000
0.239216 0.145098 0.000000
0.266667 0.152941 0.000000
0.298039 0.152941 0.000000
0.329412 0.152941 0.000000
0.360784 0.156863 0.000000
0.392157 0.164706 0.000000
0.427451 0.164706 0.000000
0.462745 0.164706 0.000000
0.498039 0.168627 0.000000
0.525490 0.168627 0.000000
0.564706 0.172549 0.000000
0.600000 0.176471 0.000000
0.643137 0.176471 0.000000
0.674510 0.184314 0.000000
0.717647 0.184314 0.000000
0.756863 0.188235 0.000000
0.000000 0.164706 0.000000
0.000000 0.164706 0.000000
0.000000 0.164706 0.000000
0.000000 0.164706 0.000000
0.000000 0.164706 0.000000
0.000000 0.164706 0.000000
0.000000 0.164706 0.000000
0.003922 0.164706 0.000000
0.035294 0.164706 0.000000
0.058824 0.164706 0.000000
0.078431 0.164706 0.000000
0.101961 0.164706 0.000000
0.129412 0.164706 0.000000
0.152941 0.168627 0.000000
0.184314 0.168627 0.000000
0.211765 0.168627 0.000000
0.239216 0.172549 0.000000
0.266667 0.176471 0.000000
0.298039 0.176471 0.000000
0.333333 0.184314 0.000000
0.360784 0.184314 0.000000
0.392157 0.188235 0.000000
0.431373 0.192157 0.000000
0.462745 0.192157 0.000000
0.498039 0.196078 0.000000
0.533333 0.196078 0.000000
0.564706 0.203922 0.000000
0.600000 0.203922 0.000000
0.647059 0.207843 0.000000
0.682353 0.211765 0.000000
0.721569 0.219608 0.000000
0.760784 0.219608 0.000000
0.000000 0.192157 0.000000
0.000000 0.192157 0.000000
0.000000 0.192157 0.000000
0.000000 0.192157 0.000000
0.000000 0.192157 0.000000
0.000000 0.192157 0.000000
0.000000 0.192157 0.000000
0.007843 0.192157 0.000000
0.035294 0.188235 0.000000
0.058824 0.192157 0.000000
0.082353 0.192157 0.000000
0.109804 0.192157 0.000000
0.133333 0.192157 0.000000
0.156863 0.192157 0.000000
0.188235 0.196078 0.000000
0.211765 0.196078 0.000000
0.243137 0.203922 0.000000
0.274510 0.203922 0.000000
0.301961 0.207843 0.000000
0.333333 0.207843 0.000000
0.360784 0.211765 0.000000
0.396078 0.219608 0.000000
0.431373 0.219608 0.000000
0.466667 0.223529 0.000000
0.501961 0.227451 0.000000
0.537255 0.231373 0.000000
0.572549 0.231373 0.000000
0.607843 0.239216 0.000000
0.647059 0.239216 0.000000
0.686275 0.243137 0.000000
0.725490 0.243137 0.000000
0.764706 0.247059 0.000000
0.000000 0.223529 0.000000
0.000000 0.223529 0.000000
0.000000 0.223529 0.000000
0.000000 0.223529 0.000000
0.000000 0.223529 0.000000
0.000000 0.223529 0.000000
0.000000 0.223529 0.000000
0.007843 0.223529 0.000000
0.035294 0.223529 0.000000
0.062745 0.223529 0.000000
0.090196 0.223529 0.000000
0.113725 0.223529 0.000000
0.137255 0.223529 0.000000
0.164706 0.223529 0.000000
0.188235 0.223529 0.000000
0.219608 0.227451 0.000000
0.247059 0.227451 0.000000
0.278431 0.231373 0.000000
0.301961 0.231373 0.000000
0.333333 0.239216 0.000000
0.368627 0.243137 0.000000
0.396078 0.243137 0.000000
0.431373 0.247059 0.000000
0.470588 0.250980 0.000000
0.501961 0.258824 0.000000
0.541176 0.262745 0.000000
0.576471 0.262745 0.000000
0.611765 0.266667 0.000000
0.650980 0.274510 0.000000
0.690196 0.274510 0.000000
0.729412 0.278431 0.000000
0.772549 0.282353 0.000000
0.000000 0.250980 0.000000
0.000000 0.250980 0.000000
0.000000 0.250980 0.000000
0.000000 0.250980 0.000000
0.000000 0.250980 0.000000
0.000000 0.250980 0.000000
0.000000 0.250980 0.000000
0.007843 0.250980 0.000000
0.039216 0.250980 0.000000
0.062745 0.250980 0.000000
0.090196 0.250980 0.000000
0.117647 0.250980 0.000000
0.145098 0.258824 0.000000
0.168627 0.258824 0.000000
0.192157 0.258824 0.000000
0.223529 0.258824 0.000000
0.247059 0.258824 0.000000
0.278431 0.262745 0.000000
0.305882 0.266667 0.000000
0.337255 0.266667 0.000000
0.368627 0.266667 0.000000
0.403922 0.274510 0.000000
0.435294 0.278431 0.000000
0.470588 0.282353 0.000000
0.505882 0.286275 0.000000
0.541176 0.286275 0.000000
0.576471 0.294118 0.000000
0.615686 0.301961 0.000000
0.654902 0.301961 0.000000
0.694118 0.305882 0.000000
0.737255 0.313725 0.000000
0.776471 0.313725 0.000000
0.000000 0.286275 0.000000
0.000000 0.286275 0.000000
0.000000 0.282353 0.000000
0.000000 0.282353 0.000000
0.000000 0.282353 0.000000
0.000000 0.282353 0.000000
0.000000 0.286275 0.000000
0.011765 0.286275 0.000000
0.039216 0.286275 0.000000
0.062745 0.286275 0.000000
0.094118 0.286275 0.000000
0.117647 0.286275 0.000000
0.145098 0.286275 0.000000
0.172549 0.286275 0.000000
0.196078 0.286275 0.000000
0.223529 0.286275 0.000000
0.250980 0.286275 0.000000
0.282353 0.294118 0.000000
0.313725 0.298039 0.000000
0.341176 0.298039 0.000000
0.372549 0.301961 0.000000
0.403922 0.301961 0.000000
0.435294 0.305882 0.000000
0.470588 0.313725 0.000000
0.509804 0.317647 0.000000
0.545098 0.321569 0.000000
0.580392 0.329412 0.000000
0.619608 0.329412 0.000000
0.662745 0.333333 0.000000
0.701961 0.341176 0.000000
0.741176 0.341176 0.000000
0.780392 0.349020 0.000000
0.000000 0.317647 0.000000
0.000000 0.317647 0.000000
0.000000 0.317647 0.000000
0.000000 0.317647 0.000000
0.000000 0.317647 0.000000
0.000000 0.317647 0.000000
0.000000 0.317647 0.000000
0.011765 0.317647 0.000000
0.039216 0.317647 0.000000
0.066667 0.321569 0.000000
0.094118 0.321569 0.000000
0.121569 0.321569 0.000000
0.149020 0.321569 0.000000
0.176471 0.321569 0.000000
0.207843 0.321569 0.000000
0.231373 0.321569 0.000000
0.258824 0.321569 0.000000
0.282353 0.321569 0.000000
0.317647 0.329412 0.000000
0.349020 0.333333 0.000000
0.376471 0.333333 0.000000
0.411765 0.337255 0.000000
0.443137 0.337255 0.000000
0.478431 0.341176 0.000000
0.509804 0.349020 0.000000
0.552941 0.352941 0.000000
0.588235 0.356863 0.000000
0.627451 0.360784 0.000000
0.662745 0.368627 0.000000
0.705882 0.372549 0.000000
0.745098 0.376471 0.000000
0.784314 0.380392 0.000000
0.000000 0.352941 0.000000
0.000000 0.352941 0.000000
0.000000 0.352941 0.000000
0.000000 0.352941 0.000000
0.000000 0.352941 0.000000
0.000000 0.352941 0.000000
0.000000 0.352941 0.000000
0.011765 0.352941 0.000000
0.043137 0.352941 0.000000
0.074510 0.356863 0.000000
0.098039 0.356863 0.000000
0.129412 0.356863 0.000000
0.152941 0.356863 0.000000
0.184314 0.356863 0.000000
0.207843 0.356863 0.000000
0.239216 0.356863 0.000000
0.266667 0.356863 0.000000
0.294118 0.360784 0.000000
0.317647 0.356863 0.000000
0.352941 0.360784 0.000000
0.388235 0.368627 0.000000
0.415686 0.368627 0.000000
0.447059 0.372549 0.000000
0.482353 0.372549 0.000000
0.517647 0.376471 0.000000
0.552941 0.380392 0.000000
0.592157 0.388235 0.000000
0.627451 0.396078 0.000000
0.666667 0.403922 0.000000
0.709804 0.407843 0.000000
0.749020 0.411765 0.000000
0.792157 0.411765 0.000000
0.000000 0.388235 0.000000
0.000000 0.388235 0.000000
0.000000 0.388235 0.000000
0.000000 0.388235 0.000000
0.000000 0.388235 0.000000
0.000000 0.388235 0.000000
0.000000 0.388235 0.000000
0.019608 0.392157 0.000000
0.043137 0.392157 0.000000
0.074510 0.392157 0.000000
0.101961 0.392157 0.000000
0.129412 0.392157 0.000000
0.156863 0.392157 0.000000
0.188235 0.392157 0.000000
0.219608 0.396078 0.000000
0.243137 0.396078 0.000000
0.274510 0.396078 0.000000
0.301961 0.396078 0.000000
0.329412 0.396078 0.000000
0.356863 0.392157 0.000000
0.392157 0.396078 0.000000
0.423529 0.403922 0.000000
0.458824 0.407843 0.000000
0.486275 0.411765 0.000000
0.521569 0.411765 0.000000
0.556863 0.415686 0.000000
0.596078 0.423529 0.000000
0.631373 0.427451 0.000000
0.670588 0.435294 0.000000
0.717647 0.443137 0.000000
0.756863 0.447059 0.000000
0.796078 0.450980 0.000000
0.000000 0.427451 0.000000
0.000000 0.423529 0.000000
0.000000 0.423529 0.000000
0.000000 0.423529 0.000000
0.000000 0.423529 0.000000
0.000000 0.427451 0.000000
0.000000 0.427451 0.000000
0.019608 0.427451 0.000000
0.047059 0.427451 0.000000
0.074510 0.427451 0.000000
0.101961 0.427451 0.000000
0.133333 0.431373 0.000000
0.164706 0.431373 0.000000
0.188235 0.431373 0.000000
0.223529 0.431373 0.000000
0.247059 0.431373 0.000000
0.278431 0.431373 0.000000
0.305882 0.431373 0.000000
0.337255 0.435294 0.000000
0.368627 0.435294 0.000000
0.396078 0.435294 0.000000
0.431373 0.435294 0.000000
0.462745 0.443137 0.000000
0.498039 0.447059 0.000000
0.533333 0.450980 0.000000
0.564706 0.450980 0.000000
0.600000 0.458824 0.000000
0.635294 0.462745 0.000000
0.674510 0.466667 0.000000
0.721569 0.478431 0.000000
0.760784 0.482353 0.000000
0.803922 0.486275 0.000000
0.000000 0.462745 0.000000
0.000000 0.466667 0.000000
0.000000 0.462745 0.000000
0.000000 0.462745 0.000000
0.000000 0.462745 0.000000
0.000000 0.462745 0.000000
0.000000 0.462745 0.000000
0.019608 0.466667 0.000000
0.047059 0.466667 0.000000
0.078431 0.466667 0.000000
0.109804 0.466667 0.000000
0.137255 0.466667 0.000000
0.164706 0.466667 0.000000
0.196078 0.470588 0.000000
0.223529 0.470588 0.000000
0.258824 0.470588 0.000000
0.282353 0.470588 0.000000
0.317647 0.470588 0.000000
0.341176 0.470588 0.000000
0.376471 0.478431 0.000000
0.407843 0.478431 0.000000
0.435294 0.478431 0.000000
0.470588 0.478431 0.000000
0.501961 0.482353 0.000000
0.537255 0.490196 0.000000
0.576471 0.490196 0.000000
0.611765 0.498039 0.000000
0.643137 0.498039 0.000000
0.682353 0.501961 0.000000
0.725490 0.505882 0.000000
0.764706 0.517647 0.000000
0.811765 0.521569 0.000000
0.000000 0.501961 0.000000
0.000000 0.501961 0.000000
0.000000 0.505882 0.000000
0.000000 0.505882 0.000000
0.000000 0.505882 0.000000
0.000000 0.501961 0.000000
0.000000 0.501961 0.000000
0.019608 0.501961 0.000000
0.047059 0.505882 0.000000
0.078431 0.505882 0.000000
0.109804 0.505882 0.000000
0.137255 0.505882 0.000000
0.172549 0.505882 0.000000
0.196078 0.509804 0.000000
0.231373 0.509804 0.000000
0.262745 0.509804 0.000000
0.294118 0.509804 0.000000
0.321569 0.509804 0.000000
0.352941 0.517647 0.000000
0.380392 0.517647 0.000000
0.415686 0.517647 0.000000
0.447059 0.517647 0.000000
0.478431 0.517647 0.000000
0.509804 0.525490 0.000000
0.545098 0.525490 0.000000
0.588235 0.533333 0.000000
0.619608 0.533333 0.000000
0.654902 0.541176 0.000000
0.690196 0.541176 0.000000
0.729412 0.541176 0.000000
0.772549 0.552941 0.000000
0.815686 0.560784 0.000000
0.000000 0.541176 0.000000
0.000000 0.541176 0.000000
0.000000 0.545098 0.000000
0.000000 0.545098 0.000000
0.000000 0.545098 0.000000
0.000000 0.545098 0.000000
0.000000 0.552941 0.000000
0.023529 0.552941 0.000000
0.047059 0.552941 0.000000
0.082353 0.545098 0.000000
0.113725 0.545098 0.000000
0.145098 0.552941 0.000000
0.172549 0.552941 0.000000
0.203922 0.552941 0.000000
0.239216 0.552941 0.000000
0.266667 0.552941 0.000000
0.298039 0.556863 0.000000
0.333333 0.556863 0.000000
0.360784 0.556863 0.000000
0.392157 0.556863 0.000000
0.423529 0.556863 0.000000
0.458824 0.560784 0.000000
0.490196 0.560784 0.000000
0.521569 0.560784 0.000000
0.556863 0.564706 0.000000
0.596078 0.572549 0.000000
0.631373 0.576471 0.000000
0.666667 0.576471 0.000000
0.701961 0.588235 0.000000
0.741176 0.588235 0.000000
0.776471 0.588235 0.000000
0.819608 0.596078 0.000000
0.000000 0.588235 0.000000
0.000000 0.588235 0.000000
0.000000 0.588235 0.000000
0.000000 0.588235 0.000000
0.000000 0.592157 0.000000
0.000000 0.592157 0.000000
0.000000 0.592157 0.000000
0.023529 0.592157 0.000000
0.047059 0.592157 0.000000
0.082353 0.596078 0.000000
0.117647 0.596078 0.000000
0.145098 0.596078 0.000000
0.176471 0.596078 0.000000
0.211765 0.600000 0.000000
0.243137 0.600000 0.000000
0.274510 0.600000 0.000000
0.305882 0.600000 0.000000
0.337255 0.607843 0.000000
0.372549 0.600000 0.000000
0.403922 0.600000 0.000000
0.435294 0.600000 0.000000
0.470588 0.600000 0.000000
0.501961 0.607843 0.000000
0.537255 0.607843 0.000000
0.564706 0.607843 0.000000
0.607843 0.615686 0.000000
0.643137 0.619608 0.000000
0.674510 0.619608 0.000000
0.717647 0.627451 0.000000
0.756863 0.631373 0.000000
0.792157 0.631373 0.000000
0.827451 0.635294 0.000000
0.000000 0.631373 0.000000
0.000000 0.631373 0.000000
0.000000 0.631373 0.000000
0.000000 0.631373 0.000000
0.000000 0.631373 0.000000
0.000000 0.635294 0.000000
0.000000 0.635294 0.000000
0.023529 0.635294 0.000000
0.047059 0.635294 0.000000
0.082353 0.643137 0.000000
0.117647 0.643137 0.000000
0.149020 0.643137 0.000000
0.184314 0.643137 0.000000
0.211765 0.647059 0.000000
0.243137 0.647059 0.000000
0.278431 0.647059 0.000000
0.313725 0.647059 0.000000
0.341176 0.650980 0.000000
0.376471 0.650980 0.000000
0.411765 0.650980 0.000000
0.443137 0.654902 0.000000
0.482353 0.654902 0.000000
0.517647 0.654902 0.000000
0.545098 0.654902 0.000000
0.580392 0.662745 0.000000
0.615686 0.662745 0.000000
0.650980 0.662745 0.000000
0.690196 0.670588 0.000000
0.725490 0.670588 0.000000
0.772549 0.670588 0.000000
0.803922 0.682353 0.000000
0.847059 0.682353 0.000000
0.000000 0.674510 0.000000
0.000000 0.674510 0.000000
0.000000 0.674510 0.000000
0.000000 0.674510 0.000000
0.000000 0.674510 0.000000
0.000000 0.682353 0.000000
0.000000 0.682353 0.000000
0.023529 0.682353 0.000000
0.054902 0.686275 0.000000
0.082353 0.686275 0.000000
0.117647 0.686275 0.000000
0.152941 0.686275 0.000000
0.184314 0.690196 0.000000
0.219608 0.690196 0.000000
0.250980 0.690196 0.000000
0.282353 0.694118 0.000000
0.317647 0.694118 0.000000
0.352941 0.694118 0.000000
0.388235 0.694118 0.000000
0.423529 0.701961 0.000000
0.458824 0.701961 0.000000
0.486275 0.701961 0.000000
0.525490 0.705882 0.000000
0.560784 0.705882 0.000000
0.596078 0.705882 0.000000
0.631373 0.709804 0.000000
0.666667 0.709804 0.000000
0.701961 0.709804 0.000000
0.741176 0.721569 0.000000
0.784314 0.721569 0.000000
0.827451 0.729412 0.000000
0.858824 0.729412 0.000000
0.000000 0.721569 0.000000
0.000000 0.721569 0.000000
0.000000 0.721569 0.000000
0.000000 0.725490 0.000000
0.000000 0.725490 0.000000
0.000000 0.725490 0.000000
0.000000 0.729412 0.000000
0.023529 0.729412 0.000000
0.054902 0.729412 0.000000
0.090196 0.737255 0.000000
0.121569 0.737255 0.000000
0.156863 0.737255 0.000000
0.188235 0.737255 0.000000
0.223529 0.741176 0.000000
0.258824 0.741176 0.000000
0.294118 0.741176 0.000000
0.329412 0.745098 0.000000
0.360784 0.745098 0.000000
0.396078 0.745098 0.000000
0.427451 0.749020 0.000000
0.466667 0.749020 0.000000
0.501961 0.749020 0.000000
