static/V2LUT.CUBE
#Generated by wwww.onlinelutcreator.com 
LUT_3D_SIZE 5 
DOMAIN_MIN 0.000000 0.000000 0.000000
DOMAIN_MAX 0.903226 0.903226 0.903226
0.000000 0.000000 0.000000
0.000000 0.000000 0.000000
0.172549 0.000000 0.000000
0.368627 0.000000 0.000000
0.596078 0.000000 0.000000
0.000000 0.027451 0.000000
0.000000 0.027451 0.000000
0.176471 0.039216 0.000000
0.388235 0.047059 0.000000
0.619608 0.062745 0.000000
0.000000 0.223529 0.000000
0.007843 0.223529 0.000000
0.188235 0.223529 0.000000
0.396078 0.243137 0.000000
0.650980 0.274510 0.000000
0.000000 0.462745 0.000000
0.019608 0.466667 0.000000
0.223529 0.470588 0.000000
0.435294 0.478431 0.000000
0.682353 0.501961 0.000000
0.000000 0.776471 0.000000
0.023529 0.780392 0.000000
0.262745 0.792157 0.000000
0.509804 0.803922 0.000000
0.772549 0.815686 0.000000
0.000000 0.000000 0.062745
0.000000 0.000000 0.062745
0.176471 0.000000 0.066667
0.376471 0.000000 0.082353
0.611765 0.000000 0.094118
0.000000 0.035294 0.062745
0.003922 0.039216 0.074510
0.192157 0.043137 0.078431
0.411765 0.043137 0.082353
0.654902 0.039216 0.078431
0.000000 0.223529 0.074510
0.007843 0.231373 0.082353
0.192157 0.231373 0.078431
0.415686 0.250980 0.082353
0.686275 0.262745 0.078431
0.000000 0.466667 0.078431
0.000000 0.478431 0.078431
0.211765 0.482353 0.078431
0.443137 0.486275 0.078431
0.709804 0.509804 0.066667
0.000000 0.792157 0.062745
0.000000 0.800000 0.058824
0.227451 0.811765 0.058824
0.498039 0.819608 0.054902
0.780392 0.831373 0.054902
0.000000 0.000000 0.262745
0.011765 0.000000 0.262745
0.192157 0.000000 0.262745
0.392157 0.000000 0.274510
0.619608 0.000000 0.294118
0.000000 0.043137 0.266667
0.007843 0.043137 0.278431
0.196078 0.043137 0.274510
0.415686 0.043137 0.286275
0.670588 0.039216 0.301961
0.000000 0.227451 0.266667
0.000000 0.239216 0.274510
0.203922 0.247059 0.286275
0.443137 0.250980 0.298039
0.721569 0.247059 0.298039
0.000000 0.466667 0.294118
0.000000 0.482353 0.298039
0.203922 0.490196 0.298039
0.443137 0.490196 0.298039
0.741176 0.517647 0.294118
0.000000 0.784314 0.313725
0.000000 0.811765 0.298039
0.172549 0.827451 0.282353
0.478431 0.835294 0.282353
0.784314 0.847059 0.282353
0.000000 0.000000 0.509804
0.027451 0.000000 0.517647
0.231373 0.000000 0.509804
0.435294 0.000000 0.509804
0.662745 0.000000 0.525490
0.000000 0.047059 0.521569
0.003922 0.043137 0.525490
0.223529 0.043137 0.533333
0.447059 0.039216 0.533333
0.690196 0.035294 0.545098
0.000000 0.262745 0.533333
0.000000 0.258824 0.537255
0.207843 0.250980 0.545098
0.450980 0.250980 0.545098
0.729412 0.247059 0.560784
0.000000 0.486275 0.533333
0.000000 0.490196 0.541176
0.196078 0.498039 0.545098
0.458824 0.509804 0.564706
0.772549 0.509804 0.572549
0.000000 0.792157 0.576471
0.000000 0.811765 0.576471
0.149020 0.835294 0.576471
0.435294 0.850980 0.564706
0.792157 0.854902 0.564706
0.000000 0.000000 0.831373
0.047059 0.000000 0.831373
0.278431 0.000000 0.835294
0.509804 0.000000 0.839216
0.756863 0.000000 0.839216
0.000000 0.054902 0.854902
0.000000 0.039216 0.866667
0.247059 0.035294 0.870588
0.505882 0.023529 0.866667
0.772549 0.019608 0.870588
0.000000 0.294118 0.874510
0.000000 0.274510 0.878431
0.196078 0.250980 0.894118
0.486275 0.243137 0.894118
0.784314 0.239216 0.901961
0.000000 0.556863 0.890196
0.000000 0.545098 0.894118
0.152941 0.533333 0.909804
0.450980 0.509804 0.925490
0.796078 0.505882 0.925490
0.000000 0.847059 0.901961
0.000000 0.854902 0.909804
0.113725 0.858824 0.925490
0.415686 0.866667 0.933333
0.792157 0.866667 0.945098
